!!!!SEGMENT: pl-cz--iii-594--003_rzepko-adolf--missa-credo.krn
!!!cenid: 18xx:1041
!!!COM: Rzepko, Adolf
!!!COM-rismid: pe30020315
!!!CDT: 1825-1892
!!!CNT: Polish
!!!OPR: Missa
!!!OTL: Credo
!!!OMV: 003
!!!PDT:
!!!AGN: Sacred; Mass
!!!SMS-siglum: PL-CZ
!!!SMS-shelfmark: III-594
!!!SMS-shelfwork: 001-003 M
!!!SMS-variant: Clarino 1mo in C: PL-CZ III-594:13, Clarino II in C.: PL-CZ III-594:15
!!!SMS-altvar: Klarino Imo in C: PL-CZ III-594:17, Clarino II in C: PL-CZ III-594:19
!!!NIFC-rismid: 300001136
!!!URL-scan: http://repozytorium.nifc.pl/skany/pl-cz-nut--iii-594
!!!ONB-nifc: UWAGA: części Mszy: Kyrie, Gloria, Credo, Sanctus, Benedictus, Agnus
!!!key: C
**kern	**fba	**dynam	**kern	**dynam	**kern	**dynam	**kern	**dynam	**kern	**text	**dynam	**kern	**dynam	**kern	**dynam	**kern	**kern	**dynam
*	*	*	*group3	*	*group3	*	*group3	*	*	*	*	*group2	*	*group2	*	*group1	*group1	*
*part9	*part9	*part9	*part8	*part8	*part7	*part7	*part6	*part6	*part5	*part5	*part5	*part4	*part4	*part3	*part3	*part2	*part1	*part1
*staff9	*	*	*staff8	*	*staff7	*	*staff6	*	*staff5	*staff5	*	*staff4	*	*staff3	*	*staff2	*staff1	*
*I"Organo	*	*	*I"Violino in F	*	*I"Violino 2do	*	*I"Violino 1°	*	*I"Sopran._	*	*	*I"Clarino II in C.	*	*I"Clarino 1mo in C	*	*I"Clarinetto in C.	*I"Flauto	*
*I'org	*	*	*I'vl in F	*	*I'vl 2	*	*I'vl 1	*	*I'S	*	*	*I'clno 2 in C	*	*I'clno 1 in C	*	*I'cl in C	*I'fl	*
*Iorgan	*	*	*Ivioln	*	*Ivioln	*	*Ivioln	*	*Isoprn	*	*	*Itromp	*	*Itromp	*	*Iclars	*Iflt	*
*ICklav	*	*	*ICstr	*	*ICstr	*	*ICstr	*	*ICvox	*	*	*ICbras	*	*ICbras	*	*ICww	*ICww	*
*IGcont	*	*	*	*	*	*	*	*	*IGsolo	*	*	*	*	*	*	*	*	*
*clefF4	*	*	*clefG2	*	*clefG2	*	*clefG2	*	*clefC1	*	*	*clefG2	*	*clefG2	*	*clefG2	*clefG2	*
*	*	*	*ITrd-3c-5	*	*	*	*	*	*	*	*	*	*	*	*	*	*	*
*k[]	*	*	*k[]	*	*k[]	*	*k[]	*	*k[]	*	*	*k[]	*	*k[]	*	*k[]	*k[]	*
*C:	*	*	*C:	*	*C:	*	*C:	*	*C:	*	*	*C:	*	*C:	*	*C:	*C:	*
*M4/4	*	*	*M4/4	*	*M4/4	*	*M4/4	*	*M4/4	*	*	*M4/4	*	*M4/4	*	*M4/4	*M4/4	*
*met(c)	*	*	*met(c)	*	*met(c)	*	*met(c)	*	*met(c)	*	*	*met(c)	*	*met(c)	*	*met(c)	*met(c)	*
*all\right	*	*	*all\right	*	*all\right	*	*all\right	*	*all\right	*	*	*all\right	*	*all\right	*	*all\right	*all\right	*
=1	=1	=1	=1	=1	=1	=1	=1	=1	=1	=1	=1	=1	=1	=1	=1	=1	=1	=1
*	*	*	*tremolo	*	*tremolo	*	*	*	*	*	*	*	*	*	*	*	*	*
!	!	!	!	!	!	!	!	!	!LO:TX:a:t=1.	!	!	!	!	!	!	!	!	!
!LO:TX:a:Bi:t=Allegretto	!	!	!LO:TX:a:Bi:t=Allegretto	!LO:DY:rj	!	!LO:DY:rj	!LO:TX:a:Bi:t=Allegretto	!LO:DY:rj	!LO:TX:a:Bi:t=Allegretto	!	!	!LO:TX:a:Bi:t=Allegretto	!LO:DY:rj	!LO:TX:a:Bi:t=Allegretto	!LO:DY:rj	!LO:TX:a:Bi:t=Allegretto	!LO:TX:a:Bi:t=Allegretto	!LO:DY:rj
8C/L	5_ 3_	f	16cc/LL	f	16e 16G/LL	f	8ee 8g\	f	1r	.	.	2.c/	f	2.e/	f	8cc\	8eee\	f
.	.	.	16cc/	.	16e 16G/	.	.	.	.	.	.	.	.	.	.	.	.	.
8GG/	.	.	16cc/	.	16e 16G/	.	4ee 4g\	.	.	.	.	.	.	.	.	4cc\	4eee\	.
.	.	.	16cc/	.	16e 16G/	.	.	.	.	.	.	.	.	.	.	.	.	.
8C/	.	.	16cc/	.	16e 16G/	.	.	.	.	.	.	.	.	.	.	.	.	.
.	.	.	16cc/	.	16e 16G/	.	.	.	.	.	.	.	.	.	.	.	.	.
*tremolo	*	*	*	*	*	*	*	*	*	*	*	*	*	*	*	*	*	*
8GG/J	.	.	16cc/	.	16e 16G/	.	8ee 8g\	.	.	.	.	.	.	.	.	8cc\	8eee\	.
.	.	.	16cc/JJ	.	16e 16G/JJ	.	.	.	.	.	.	.	.	.	.	.	.	.
8C/L	.	.	16cc/LL	.	16e 16G/LL	.	8eeL 8g\	.	.	.	.	.	.	.	.	8cc/L	8eee\L	.
.	.	.	16cc/	.	16e 16G/	.	.	.	.	.	.	.	.	.	.	.	.	.
8GG/	.	.	16cc/	.	16e 16G/	.	(16ff#X\L	.	.	.	.	.	.	.	.	16f#X/L	(16ff#X\L	.
.	.	.	16cc/	.	16e 16G/	.	16gg\JJ	.	.	.	.	.	.	.	.	16g/JJ	16gg\JJ	.
8C/	.	.	16cc/	.	16e 16G/	.	16aa\LL	.	.	.	.	4r	.	4r	.	16a/LL	16aa\LL	.
.	.	.	16cc/	.	16e 16G/	.	16gg\	.	.	.	.	.	.	.	.	16g/	16gg\	.
8GG/J	.	.	16cc/	.	16e 16G/	.	16ff#\	.	.	.	.	.	.	.	.	16f#/	16ff#\	.
.	.	.	16cc/JJ	.	16e 16G/JJ	.	16gg\JJ)	.	.	.	.	.	.	.	.	16g/JJ	16gg\JJ)	.
*Xtremolo	*	*	*	*	*	*	*	*	*	*	*	*	*	*	*	*	*	*
=2	=2	=2	=2	=2	=2	=2	=2	=2	=2	=2	=2	=2	=2	=2	=2	=2	=2	=2
*rep	*	*	*rep	*	*rep	*	*rep	*	*	*	*	*	*	*	*	*rep	*	*
!	!	!	!	!	!	!	!	!	!	!	!LO:DY:a:rj	!	!	!	!	!	!	!
8C/L	x	.	16cc/LL	.	16e 16G/LL	.	8ee 8g\	.	(4.ee\	Cre-	f	4.e/	.	4.ee\	.	8cc\	4.eee\	.
.	.	.	16cc/	.	16e 16G/	.	.	.	.	.	.	.	.	.	.	.	.	.
8GG/	.	.	16cc/	.	16e 16G/	.	4ee 4g\	.	.	.	.	.	.	.	.	4cc\	.	.
.	.	.	16cc/	.	16e 16G/	.	.	.	.	.	.	.	.	.	.	.	.	.
8C/	.	.	16cc/	.	16e 16G/	.	.	.	.	.	.	.	.	.	.	.	.	.
.	.	.	16cc/	.	16e 16G/	.	.	.	.	.	.	.	.	.	.	.	.	.
8GG/J	.	.	16cc/	.	16e 16G/	.	8ee 8g\	.	8cc\)	.	.	8c/	.	8cc\	.	8cc\	8ccc\	.
.	.	.	16cc/JJ	.	16e 16G/JJ	.	.	.	.	.	.	.	.	.	.	.	.	.
*tremolo	*	*	*	*	*	*	*	*	*	*	*	*	*	*	*	*	*	*
8C/L	.	.	16cc/LL	.	16e 16G/LL	.	8eeL 8g\	.	4g\	-do	.	4G/	.	4g\	.	8cc/L	8gg\L	.
.	.	.	16cc/	.	16e 16G/	.	.	.	.	.	.	.	.	.	.	.	.	.
!	!	!	!	!	!	!	!	!	!	!	!	!	!	!	!	!	!LO:TX:a:t=P:problem=brak początku łuku	!
8GG/	.	.	16cc/	.	16e 16G/	.	(16ff#X\L	.	.	.	.	.	.	.	.	16f#X/L	(16ff#X\L	.
!	!	!	!	!	!	!	!	!	!	!	!	!	!	!	!	!	!LO:TX:a:t=P:global:problem=custos użyte jako łamanie pięciolinii	!
.	.	.	16cc/	.	16e 16G/	.	16gg\JJ	.	.	.	.	.	.	.	.	16g/JJ	16gg\JJ	.
!	!	!	!	!	!	!	!	!	!	!	!	!	!	!	!	!	!LO:LB:g=original	!
8C/	.	.	16cc/	.	16e 16G/	.	16aa\LL	.	4r	.	.	4r	.	4r	.	16a/LL	16aa\LL	.
.	.	.	16cc/	.	16e 16G/	.	16gg\	.	.	.	.	.	.	.	.	16g/	16gg\	.
8GG/J	.	.	16cc/	.	16e 16G/	.	16ff#\	.	.	.	.	.	.	.	.	16f#/	16ff#\	.
.	.	.	16cc/JJ	.	16e 16G/JJ	.	16gg\JJ)	.	.	.	.	.	.	.	.	16g/JJ	16gg\JJ)	.
*Xrep	*	*	*Xrep	*	*Xrep	*	*Xrep	*	*	*	*	*	*	*	*	*Xrep	*	*
*Xtremolo	*	*	*	*	*	*	*	*	*	*	*	*	*	*	*	*	*	*
=3	=3	=3	=3	=3	=3	=3	=3	=3	=3	=3	=3	=3	=3	=3	=3	=3	=3	=3
*tremolo	*	*	*	*	*	*	*	*	*	*	*	*	*	*	*	*	*	*
!	!	!	!	!	!	!	!	!	!LO:TX:a:t=1	!	!	!	!	!	!	!	!	!
8BB/L	6_ 5_	.	16dd/LL	.	16f 16G/LL	.	8ff 8dd\	.	1r	.	.	2.G/	.	2.g/	.	8g/	8fff\	.
.	.	.	16dd/	.	16f 16G/	.	.	.	.	.	.	.	.	.	.	.	.	.
8GG/	.	.	16dd/	.	16f 16G/	.	4ff 4dd\	.	.	.	.	.	.	.	.	4g/	4fff\	.
.	.	.	16dd/	.	16f 16G/	.	.	.	.	.	.	.	.	.	.	.	.	.
8BB/	.	.	16dd/	.	16f 16G/	.	.	.	.	.	.	.	.	.	.	.	.	.
.	.	.	16dd/	.	16f 16G/	.	.	.	.	.	.	.	.	.	.	.	.	.
8GG/J	.	.	16dd/	.	16f 16G/	.	8ff 8dd\	.	.	.	.	.	.	.	.	8g/	8fff\	.
.	.	.	16dd/JJ	.	16f 16G/JJ	.	.	.	.	.	.	.	.	.	.	.	.	.
8BB/L	.	.	16dd/LL	.	16f 16G/LL	.	8ffL 8dd\	.	.	.	.	.	.	.	.	8g/L	8fff\L	.
.	.	.	16dd/	.	16f 16G/	.	.	.	.	.	.	.	.	.	.	.	.	.
8GG/	.	.	16dd/	.	16f 16G/	.	(16ff#X\L	.	.	.	.	.	.	.	.	16f#X/L	(16ff#X\L	.
.	.	.	16dd/	.	16f 16G/	.	16gg\JJ	.	.	.	.	.	.	.	.	16g/JJ	16gg\JJ	.
8BB/	.	.	16dd/	.	16f 16G/	.	16aa\LL	.	.	.	.	4r	.	4r	.	16a/LL	16aa\LL	.
.	.	.	16dd/	.	16f 16G/	.	16gg\	.	.	.	.	.	.	.	.	16g/	16gg\	.
8GG/J	.	.	16dd/	.	16f 16G/	.	16ff#\	.	.	.	.	.	.	.	.	16f#/	16ff#\	.
.	.	.	16dd/JJ	.	16f 16G/JJ	.	16gg\JJ)	.	.	.	.	.	.	.	.	16g/JJ	16gg\JJ)	.
!LO:LB:g=original	!	!	!	!	!	!	!	!	!	!	!	!	!	!	!	!	!	!
=4	=4	=4	=4	=4	=4	=4	=4	=4	=4	=4	=4	=4	=4	=4	=4	=4	=4	=4
*	*	*	*rep	*	*rep	*	*rep	*	*	*	*	*	*	*	*	*	*	*
!	!	!	!	!	!	!	!	!	!	!	!	!LO:TX:a:t=1	!	!LO:TX:a:t=1	!	!	!	!
8BB/L	.	.	16dd/LL	.	16f 16G/LL	.	8ff 8dd\	.	(4.ff\	Cre-	.	1r	.	1r	.	4.fn/	4.fff\	.
.	.	.	16dd/	.	16f 16G/	.	.	.	.	.	.	.	.	.	.	.	.	.
8GG/	.	.	16dd/	.	16f 16G/	.	4ff 4dd\	.	.	.	.	.	.	.	.	.	.	.
.	.	.	16dd/	.	16f 16G/	.	.	.	.	.	.	.	.	.	.	.	.	.
8BB/	.	.	16dd/	.	16f 16G/	.	.	.	.	.	.	.	.	.	.	.	.	.
.	.	.	16dd/	.	16f 16G/	.	.	.	.	.	.	.	.	.	.	.	.	.
8GG/J	.	.	16dd/	.	16f 16G/	.	8ff 8dd\	.	8dd\)	.	.	.	.	.	.	8d/	8ddd\	.
.	.	.	16dd/JJ	.	16f 16G/JJ	.	.	.	.	.	.	.	.	.	.	.	.	.
8BB/L	.	.	16dd/LL	.	16f 16G/LL	.	8ffL 8dd\	.	4b\	-do	.	.	.	.	.	8B/L	8bb\L	.
.	.	.	16dd/	.	16f 16G/	.	.	.	.	.	.	.	.	.	.	.	.	.
8GG/	.	.	16dd/	.	16f 16G/	.	(16ff#X\L	.	.	.	.	.	.	.	.	16f#X/L	(16ff#X\L	.
.	.	.	16dd/	.	16f 16G/	.	16gg\JJ	.	.	.	.	.	.	.	.	16g/JJ	16gg\JJ	.
8BB/	.	.	16dd/	.	16f 16G/	.	16aa\LL	.	4r	.	.	.	.	.	.	16a/LL	16aa\LL	.
.	.	.	16dd/	.	16f 16G/	.	16gg\	.	.	.	.	.	.	.	.	16g/	16gg\	.
8GG/J	.	.	16dd/	.	16f 16G/	.	16ff#\	.	.	.	.	.	.	.	.	16f#/	16ff#\	.
.	.	.	16dd/JJ	.	16f 16G/JJ	.	16gg\JJ)	.	.	.	.	.	.	.	.	16g/JJ	16gg\JJ)	.
!	!	!	!	!	!	!	!	!	!LO:LB:g=original	!	!	!	!	!LO:LB:g=original	!	!	!	!
*	*	*	*Xrep	*	*Xrep	*	*Xrep	*	*	*	*	*	*	*	*	*	*	*
*Xtremolo	*	*	*Xtremolo	*	*Xtremolo	*	*	*	*	*	*	*	*	*	*	*	*	*
=5	=5	=5	=5	=5	=5	=5	=5	=5	=5	=5	=5	=5	=5	=5	=5	=5	=5	=5
*	*	*	*	*	*	*	*tremolo	*	*	*	*	*	*	*	*	*	*	*
4.C\	5 3	.	4.ee 4.g/	.	4.g 4.c/	.	16eee\LL	.	(4.ee\	Cre-	.	4.c/	.	4.c/	.	4.cc/	4.eee\	.
.	.	.	.	.	.	.	16eee\	.	.	.	.	.	.	.	.	.	.	.
.	.	.	.	.	.	.	16eee\	.	.	.	.	.	.	.	.	.	.	.
.	.	.	.	.	.	.	16eee\JJ	.	.	.	.	.	.	.	.	.	.	.
.	.	.	.	.	.	.	16eee\LL	.	.	.	.	.	.	.	.	.	.	.
.	.	.	.	.	.	.	16eee\	.	.	.	.	.	.	.	.	.	.	.
8G\	5 3	.	8dd 8b/	.	8a 8G/	.	16ddd\	.	8dd\)	.	.	8G/	.	8g/	.	8g/	8ddd\	.
.	.	.	.	.	.	.	16ddd\JJ	.	.	.	.	.	.	.	.	.	.	.
4.A\	5 3	.	4.cc/	.	4.a 4.e/	.	16ccc\LL	.	4.cc\	-do	.	4.c/	.	4.e/	.	4.a/	4.ccc\	.
.	.	.	.	.	.	.	16ccc\	.	.	.	.	.	.	.	.	.	.	.
.	.	.	.	.	.	.	16ccc\	.	.	.	.	.	.	.	.	.	.	.
.	.	.	.	.	.	.	16ccc\JJ	.	.	.	.	.	.	.	.	.	.	.
.	.	.	.	.	.	.	16ccc\LL	.	.	.	.	.	.	.	.	.	.	.
.	.	.	.	.	.	.	16ccc\	.	.	.	.	.	.	.	.	.	.	.
8E\	7 #3	.	8dd 8cc/	.	8g#X 8B/	.	16bb\	.	8b\	in	.	8e/	.	8e/	.	8g#X/	8bb\	.
.	.	.	.	.	.	.	16bb\JJ	.	.	.	.	.	.	.	.	.	.	.
=6	=6	=6	=6	=6	=6	=6	=6	=6	=6	=6	=6	=6	=6	=6	=6	=6	=6	=6
!	!	!	!	!	!	!	!	!	!	!	!	!LO:TX:a:t=2	!	!LO:TX:a:t=2	!	!	!	!
4.F\	5 3	.	4.cc/	.	4.a 4.f/	.	16aa\LL	.	4.a/	u-	.	0r	.	0r	.	4.a/	4.aa\	.
.	.	.	.	.	.	.	16aa\	.	.	.	.	.	.	.	.	.	.	.
.	.	.	.	.	.	.	16aa\	.	.	.	.	.	.	.	.	.	.	.
.	.	.	.	.	.	.	16aa\JJ	.	.	.	.	.	.	.	.	.	.	.
.	.	.	.	.	.	.	16aa\LL	.	.	.	.	.	.	.	.	.	.	.
.	.	.	.	.	.	.	16aa\	.	.	.	.	.	.	.	.	.	.	.
8C#X\	6_ 5_	.	8gg 8b-/	.	8e/	.	16gg\	.	8g/	-num	.	.	.	.	.	8c#X/	8gg\	.
.	.	.	.	.	.	.	16gg\JJ	.	.	.	.	.	.	.	.	.	.	.
4C#\	.	.	4gg 4b-/	.	4e/	.	16gg\LL	.	4.g/	De-	.	.	.	.	.	4c#/	4gg\	.
.	.	.	.	.	.	.	16gg\	.	.	.	.	.	.	.	.	.	.	.
.	.	.	.	.	.	.	16gg\	.	.	.	.	.	.	.	.	.	.	.
.	.	.	.	.	.	.	16gg\JJ	.	.	.	.	.	.	.	.	.	.	.
4D\	5 3	.	4ff 4a/	.	4d/	.	16ff\LL	.	.	.	.	.	.	.	.	4d/	4ff\	.
.	.	.	.	.	.	.	16ff\	.	.	.	.	.	.	.	.	.	.	.
.	.	.	.	.	.	.	16ff\	.	8f/	-um	.	.	.	.	.	.	.	.
.	.	.	.	.	.	.	16ff\JJ	.	.	.	.	.	.	.	.	.	.	.
!	!	!	!	!	!	!	!	!	!	!	!	!	!	!	!	!LO:LB:g=original	!	!
=7	=7	=7	=7	=7	=7	=7	=7	=7	=7	=7	=7	=7	=7	=7	=7	=7	=7	=7
4.D\	3	.	4.ff 4.a/	.	4.a 4.d/	.	16ff\LL	.	(4.ff\	Pa-	.	.	.	.	.	4.a/	4.fff\	.
.	.	.	.	.	.	.	16ff\	.	.	.	.	.	.	.	.	.	.	.
.	.	.	.	.	.	.	16ff\	.	.	.	.	.	.	.	.	.	.	.
.	.	.	.	.	.	.	16ff\JJ	.	.	.	.	.	.	.	.	.	.	.
.	.	.	.	.	.	.	16ff\LL	.	.	.	.	.	.	.	.	.	.	.
.	.	.	.	.	.	.	16ff\	.	.	.	.	.	.	.	.	.	.	.
8E\	#6 4 3	.	8cc#X/	.	8g 8A/	.	16ee\	.	8ee\)	.	.	.	.	.	.	8cc#X\	8eee\	.
.	.	.	.	.	.	.	16ee\JJ	.	.	.	.	.	.	.	.	.	.	.
4F\	6 3	.	4.dd 4.a/	.	4.a/	.	16dd\LL	.	4.dd\	-trem	.	.	.	.	.	4.dd\	4ddd\	.
.	.	.	.	.	.	.	16dd\	.	.	.	.	.	.	.	.	.	.	.
.	.	.	.	.	.	.	16dd\	.	.	.	.	.	.	.	.	.	.	.
.	.	.	.	.	.	.	16dd\JJ	.	.	.	.	.	.	.	.	.	.	.
4F#X\	6 5	.	.	.	.	.	16dd\LL	.	.	.	.	.	.	.	.	.	4ccc\	.
.	.	.	.	.	.	.	16dd\	.	.	.	.	.	.	.	.	.	.	.
.	.	.	8cc/	.	8a 8d/	.	16cc\	.	8cc\	om-	.	.	.	.	.	8a\	.	.
.	.	.	.	.	.	.	16cc\JJ	.	.	.	.	.	.	.	.	.	.	.
=8	=8	=8	=8	=8	=8	=8	=8	=8	=8	=8	=8	=8	=8	=8	=8	=8	=8	=8
4G\	5 3	.	4dd 4b/	.	4g 4G/	.	16b\LL	.	4b\	-ni-	.	4G/	.	4g/	.	8g/L	4bb\	.
.	.	.	.	.	.	.	16b\	.	.	.	.	.	.	.	.	.	.	.
.	.	.	.	.	.	.	16b\	.	.	.	.	.	.	.	.	8f/	.	.
.	.	.	.	.	.	.	16b\JJ	.	.	.	.	.	.	.	.	.	.	.
4E\	6 3	.	4cc/	.	4g 4G/	.	16cc\LL	.	(8.cc\L	-po-	.	4G/	.	4g/	.	8e/	8.ccc\L	.
.	.	.	.	.	.	.	16cc\	.	.	.	.	.	.	.	.	.	.	.
.	.	.	.	.	.	.	16ee\	.	.	.	.	.	.	.	.	8c/J	.	.
.	.	.	.	.	.	.	16ee\JJ	.	16ee\Jk)	.	.	.	.	.	.	.	16eee\Jk	.
4G 4GG/	6 4	.	4cc/	.	4e 4G/	.	16ee\LL	.	4ee\	-ten-	.	4G/	.	4g/	.	4g/	4eee\	.
.	.	.	.	.	.	.	16ee\	.	.	.	.	.	.	.	.	.	.	.
.	.	.	.	.	.	.	16ee\	.	.	.	.	.	.	.	.	.	.	.
.	.	.	.	.	.	.	16ee\JJ	.	.	.	.	.	.	.	.	.	.	.
4G 4GG/	5 3	.	4dd 4b/	.	4g 4G/	.	16dd\LL	.	4dd\	-tem	.	4G/	.	4g/	.	4g/	4ddd\	.
.	.	.	.	.	.	.	16dd\	.	.	.	.	.	.	.	.	.	.	.
.	.	.	.	.	.	.	16dd\	.	.	.	.	.	.	.	.	.	.	.
.	.	.	.	.	.	.	16dd\JJ	.	.	.	.	.	.	.	.	.	.	.
*	*	*	*	*	*	*	*Xtremolo	*	*	*	*	*	*	*	*	*	*	*
=9	=9	=9	=9	=9	=9	=9	=9	=9	=9	=9	=9	=9	=9	=9	=9	=9	=9	=9
!LO:TX:a:i:t=tasto Solo	!	!	!	!	!	!	!LO:TX:a:i:t=Solo:rj	!	!LO:TX:a:t=1	!	!	!LO:TX:a:t=11	!	!LO:TX:a:t=11	!	!LO:TX:a:t=1.	!	!
4C/	.	.	8r	.	8r	.	4.gg\	.	1r	.	.	00r	.	00r	.	1r	4.gg\	.
*	*	*	*tremolo	*	*tremolo	*	*	*	*	*	*	*	*	*	*	*	*	*
.	.	.	8cc/L	.	8e 8G/L	.	.	.	.	.	.	.	.	.	.	.	.	.
4r	.	.	8cc/	.	8e 8G/	.	.	.	.	.	.	.	.	.	.	.	.	.
.	.	.	8cc/J	.	8e 8G/J	.	(16aa\LL	.	.	.	.	.	.	.	.	.	16aa\LL	.
.	.	.	.	.	.	.	16gg\JJ)	.	.	.	.	.	.	.	.	.	16gg\JJ	.
!	!	!	!	!	!	!	!LO:LB:g=original	!	!	!	!	!	!	!	!	!	!	!
4C/	.	.	8r	.	8r	.	8ff\L	.	.	.	.	.	.	.	.	.	8ff\L	.
.	.	.	8cc/L	.	8e 8G/L	.	8ee\	.	.	.	.	.	.	.	.	.	8ee\	.
4r	.	.	8cc/	.	8e 8G/	.	8dd\	.	.	.	.	.	.	.	.	.	8dd\	.
.	.	.	8cc/J	.	8e 8G/J	.	8cc\J	.	.	.	.	.	.	.	.	.	8cc\J	.
!	!	!	!	!	!	!	!	!	!	!	!	!	!	!	!	!	!LO:LB:g=original	!
=10	=10	=10	=10	=10	=10	=10	=10	=10	=10	=10	=10	=10	=10	=10	=10	=10	=10	=10
*	*	*	*	*	*	*	*2\right	*	*	*	*	*	*	*	*	*	*2\right	*
4BB/	.	.	8r	.	8r	.	2ff\	.	(8dd\L	fac-	.	.	.	.	.	[2f/	2ff\	.
.	.	.	8dd/L	.	8f 8G/L	.	.	.	8cc#X\J)	.	.	.	.	.	.	.	.	.
4r	.	.	8dd/	.	8f 8G/	.	.	.	8dd\	-to-	.	.	.	.	.	.	.	.
.	.	.	8dd/J	.	8f 8G/J	.	.	.	8ccn\	-rem	.	.	.	.	.	.	.	.
!	!	!	!LO:LB:g=original	!	!	!	!	!	!	!	!	!	!	!	!	!	!	!
4GG/	.	.	8r	.	8r	.	8ff\L	.	4b\	cae-	.	.	.	.	.	8f/L]	2r	.
.	.	.	8dd 8b/L	.	8f 8G/L	.	8ff#X\	.	.	.	.	.	.	.	.	8f#X/	.	.
4r	.	.	8dd 8b/	.	8f 8G/	.	8gg\	.	8b\	-li	.	.	.	.	.	8g/	.	.
.	.	.	8dd 8b/J	.	8f 8G/J	.	8ffn\J	.	8b\	et	.	.	.	.	.	8fn/J	.	.
=11	=11	=11	=11	=11	=11	=11	=11	=11	=11	=11	=11	=11	=11	=11	=11	=11	=11	=11
!	!	!	!	!	!	!	!	!	!	!	!	!	!	!	!	!	!LO:TX:a:t=2	!
4C/	.	.	8r	.	8r	.	4.ee\	.	4cc\	ter-	.	.	.	.	.	8e/L	0r	.
.	.	.	8cc/L	.	8e 8G/L	.	.	.	.	.	.	.	.	.	.	16a/L	.	.
.	.	.	.	.	.	.	.	.	.	.	.	.	.	.	.	16g/JJ	.	.
4r	.	.	8cc/	.	8e 8G/	.	.	.	4cc\	-ra	.	.	.	.	.	8f/L	.	.
.	.	.	8cc/J	.	8e 8G/J	.	16aa\LL	.	.	.	.	.	.	.	.	8e/	.	.
.	.	.	.	.	.	.	16gg\JJ	.	.	.	.	.	.	.	.	.	.	.
4C/	.	.	8r	.	8r	.	8ff\L	.	2r	.	.	.	.	.	.	8d/	.	.
.	.	.	8cc/L	.	8e 8G/L	.	8ee\	.	.	.	.	.	.	.	.	8c/J	.	.
4r	.	.	8cc/	.	8e 8G/	.	8dd\	.	.	.	.	.	.	.	.	4r	.	.
.	.	.	8cc/J	.	8e 8G/J	.	8cc\J	.	.	.	.	.	.	.	.	.	.	.
!	!	!	!	!	!LO:LB:g=original	!	!	!	!	!	!	!	!	!	!	!	!	!
=12	=12	=12	=12	=12	=12	=12	=12	=12	=12	=12	=12	=12	=12	=12	=12	=12	=12	=12
!	!	!	!	!	!	!	!	!	!LO:N:vis=4	!	!	!	!	!	!	!	!	!
4BB/	.	.	8r	.	8r	.	2ff\	.	(8dd\	vi-	.	.	.	.	.	[2f/	.	.
!	!	!	!	!	!	!	!	!	!LO:N:vis=4	!	!	!	!	!	!	!	!	!
.	.	.	8dd/L	.	8f 8G/L	.	.	.	8cc#X\)	.	.	.	.	.	.	.	.	.
4r	.	.	8dd/	.	8f 8G/	.	.	.	(8dd\L	-si-	.	.	.	.	.	.	.	.
.	.	.	8dd/J	.	8f 8G/J	.	.	.	8ccn\J)	.	.	.	.	.	.	.	.	.
4GG/	.	.	8r	.	8r	.	8ff\L	.	4b\	-bi-	.	.	.	.	.	8f/L]	.	.
.	.	.	8dd 8b/L	.	8f 8G/L	.	8ff#X\	.	.	.	.	.	.	.	.	8f#X/	.	.
4r	.	.	8dd 8b/	.	8f 8G/	.	8gg\	.	4b\	-li-	.	.	.	.	.	8g/	.	.
.	.	.	8dd 8b/J	.	8f 8G/J	.	8ffn\J	.	.	.	.	.	.	.	.	8fn/J	.	.
*	*	*	*Xtremolo	*	*Xtremolo	*	*	*	*	*	*	*	*	*	*	*	*	*
=13	=13	=13	=13	=13	=13	=13	=13	=13	=13	=13	=13	=13	=13	=13	=13	=13	=13	=13
!	!	!	!	!	!	!LO:DY:rj	!	!	!	!	!	!	!	!	!	!	!	!
4C/	.	.	4cc/	.	4e 4G/	f	4ee\	.	4cc\	-um	.	00r	.	00r	.	4e/	4r	.
4B-X\	6 4 2	.	4cc/	.	4e 4G/	.	4eet\	.	4r	.	.	.	.	.	.	4b-XT\	4eeet\	.
4A\	6 3	.	4ff 4cc/	.	4f/	.	4ff\	.	2r	.	.	.	.	.	.	4a/	4fff\	.
4E\	6 3	.	4cc/	.	4g 4G/	.	4ggT\	.	.	.	.	.	.	.	.	4cc\	4gggT\	.
=14	=14	=14	=14	=14	=14	=14	=14	=14	=14	=14	=14	=14	=14	=14	=14	=14	=14	=14
!	!	!	!	!	!	!	!	!	!LO:TX:a:t=1.	!	!	!	!	!	!	!	!	!
4F\	5 3	.	4gg 4a/	.	4a 4c/	.	4aa\	.	1r	.	.	.	.	.	.	4cc\	4aaa\	.
4G\	#4 2	.	4ee 4cc#X/	.	4g 4A/	.	4cc#X\	.	.	.	.	.	.	.	.	8a/L	4ccc#Xt\	.
.	.	.	.	.	.	.	.	.	.	.	.	.	.	.	.	8g/J	.	.
4F\	6 3	.	4a/	.	4a 4d/	.	4ddT\	.	.	.	.	.	.	.	.	4f/	4ddd\	.
4C#X/	6 5	.	4ee/	.	4g 4A/	.	4ee\	.	.	.	.	.	.	.	.	4a/	4eee\	.
!	!	!	!	!	!	!	!	!	!LO:LB:g=original	!	!	!	!	!	!	!	!	!
=15	=15	=15	=15	=15	=15	=15	=15	=15	=15	=15	=15	=15	=15	=15	=15	=15	=15	=15
*	*	*	*	*	*	*	*	*	*2\right	*	*	*	*	*	*	*	*	*
2D/	5 3	.	8r	.	8r	.	2ff\	.	2ff\	vi-	.	.	.	.	.	2a/	2fff\	.
*	*	*	*tremolo	*	*tremolo	*	*	*	*	*	*	*	*	*	*	*	*	*
.	.	.	8dd/L	.	8f 8A/L	.	.	.	.	.	.	.	.	.	.	.	.	.
.	.	.	8dd/	.	8f 8A/	.	.	.	.	.	.	.	.	.	.	.	.	.
.	.	.	8dd/J	.	8f 8A/J	.	.	.	.	.	.	.	.	.	.	.	.	.
2C/	3 4	.	8r	.	8r	.	2ff\	.	2ff\	-si-	.	.	.	.	.	2a-X/	2fff\	.
.	.	.	8dd/L	.	8f 8A-X/L	.	.	.	.	.	.	.	.	.	.	.	.	.
.	6 x	.	8dd/	.	8f 8A-/	.	.	.	.	.	.	.	.	.	.	.	.	.
.	.	.	8dd/J	.	8f 8A-/J	.	.	.	.	.	.	.	.	.	.	.	.	.
=16	=16	=16	=16	=16	=16	=16	=16	=16	=16	=16	=16	=16	=16	=16	=16	=16	=16	=16
2BB/	6 5	.	8r	.	8r	.	4.ff\	.	4.ff\	-bi-	.	.	.	.	.	4.g/	4.fff\	.
.	.	.	8dd/L	.	8f 8G/L	.	.	.	.	.	.	.	.	.	.	.	.	.
.	.	.	8dd/	.	8f 8G/	.	.	.	.	.	.	.	.	.	.	.	.	.
.	.	.	8dd/J	.	8f 8G/J	.	8ff\	.	8ff\	-li-	.	.	.	.	.	8g/	8fff\	.
4C/	5 3	.	8r	.	8r	.	4ee\	.	4ee\	-um	.	.	.	.	.	4g/	4eee\	.
.	.	.	8cc/L	.	8e 8G/L	.	.	.	.	.	.	.	.	.	.	.	.	.
4r	.	.	8cc/	.	8e 8G/	.	4r	.	4r	.	.	.	.	.	.	4r	4r	.
.	.	.	8cc/J	.	8e 8G/J	.	.	.	.	.	.	.	.	.	.	.	.	.
*	*	*	*Xtremolo	*	*Xtremolo	*	*	*	*	*	*	*	*	*	*	*	*	*
!LO:LB:g=original	!	!	!	!	!	!	!	!	!	!	!	!	!	!	!	!	!	!
=17	=17	=17	=17	=17	=17	=17	=17	=17	=17	=17	=17	=17	=17	=17	=17	=17	=17	=17
!	!	!	!	!	!	!	!	!	!LO:TX:a:t=1.	!	!	!	!	!	!	!LO:TX:a:i:t=Solo:rj	!LO:TX:a:t=1	!
4F\	6	.	4f/	.	4d 4A/	.	(16d/LL	.	1r	.	.	0r	.	0r	.	16dd\LL	1r	.
.	.	.	.	.	.	.	16c#X/	.	.	.	.	.	.	.	.	16cc#X\	.	.
.	.	.	.	.	.	.	16e/	.	.	.	.	.	.	.	.	16ee\	.	.
.	.	.	.	.	.	.	16d/JJ	.	.	.	.	.	.	.	.	16dd\JJ	.	.
4r	.	.	4r	.	4r	.	16f/LL	.	.	.	.	.	.	.	.	16ff\LL	.	.
.	.	.	.	.	.	.	16e/	.	.	.	.	.	.	.	.	16ee\	.	.
.	.	.	.	.	.	.	16g/	.	.	.	.	.	.	.	.	16gg\	.	.
.	.	.	.	.	.	.	16f/JJ	.	.	.	.	.	.	.	.	16ff\JJ	.	.
8r	.	.	8r	.	8r	.	4a/)	.	.	.	.	.	.	.	.	4aa\	.	.
*	*	*	*tremolo	*	*tremolo	*	*	*	*	*	*	*	*	*	*	*	*	*
8F\L	6	.	8f/L	.	8d 8A/L	.	.	.	.	.	.	.	.	.	.	.	.	.
8F\	.	.	8f/	.	8d 8A/	.	4r	.	.	.	.	.	.	.	.	4r	.	.
8F\J	.	.	8f/J	.	8d 8A/J	.	.	.	.	.	.	.	.	.	.	.	.	.
*	*	*	*Xtremolo	*	*Xtremolo	*	*	*	*	*	*	*	*	*	*	*	*	*
!	!	!	!	!	!	!	!	!	!	!	!	!	!	!	!	!LO:LB:g=original	!	!
=18	=18	=18	=18	=18	=18	=18	=18	=18	=18	=18	=18	=18	=18	=18	=18	=18	=18	=18
*rep	*	*	*rep	*	*rep	*	*rep	*	*	*	*	*	*	*	*	*	*	*
!	!	!	!	!	!	!	!	!	!	!	!	!	!	!	!	!LO:TX:a:t=1.	!	!
4F\	6	.	4f/	.	4d 4A/	.	(16d/LL	.	(16dd\LL	om-	.	.	.	.	.	1r	16ddd\LL	.
.	.	.	.	.	.	.	16c#X/	.	16cc#X\	.	.	.	.	.	.	.	16ccc#X\	.
.	.	.	.	.	.	.	16e/	.	16ee\	.	.	.	.	.	.	.	16eee\	.
.	.	.	.	.	.	.	16d/JJ	.	16dd\JJ)	.	.	.	.	.	.	.	16ddd\JJ	.
4r	.	.	4r	.	4r	.	16f/LL	.	(16ff\LL	-ni-	.	.	.	.	.	.	16fff\LL	.
.	.	.	.	.	.	.	16e/	.	16ee\	.	.	.	.	.	.	.	16eee\	.
.	.	.	.	.	.	.	16g/	.	16gg\	.	.	.	.	.	.	.	16ggg\	.
.	.	.	.	.	.	.	16f/JJ	.	16ff\JJ)	.	.	.	.	.	.	.	16fff\JJ	.
8r	.	.	8r	.	8r	.	4a/)	.	4aa\	-um	.	.	.	.	.	.	4aaa\	.
*	*	*	*tremolo	*	*tremolo	*	*	*	*	*	*	*	*	*	*	*	*	*
8F\L	6	.	8f/L	.	8d 8A/L	.	.	.	.	.	.	.	.	.	.	.	.	.
8F\	.	.	8f/	.	8d 8A/	.	4r	.	4r	.	.	.	.	.	.	.	4r	.
8F\J	.	.	8f/J	.	8d 8A/J	.	.	.	.	.	.	.	.	.	.	.	.	.
*Xrep	*	*	*Xrep	*	*Xrep	*	*Xrep	*	*	*	*	*	*	*	*	*	*	*
*	*	*	*Xtremolo	*	*Xtremolo	*	*	*	*	*	*	*	*	*	*	*	*	*
=19	=19	=19	=19	=19	=19	=19	=19	=19	=19	=19	=19	=19	=19	=19	=19	=19	=19	=19
!	!	!	!	!	!	!	!	!	!LO:TX:a:t=1.	!	!	!	!	!	!	!	!LO:TX:a:t=1	!
4F\	6	.	4f/	.	4d 4A/	.	16d/LL	.	1r	.	.	1r	.	1r	.	16dd\LL	1r	.
.	.	.	.	.	.	.	16c#X/	.	.	.	.	.	.	.	.	16cc#X\	.	.
.	.	.	.	.	.	.	16e/	.	.	.	.	.	.	.	.	16ee\	.	.
.	.	.	.	.	.	.	16d/JJ	.	.	.	.	.	.	.	.	16dd\JJ	.	.
4r	.	.	4r	.	4r	.	16f/LL	.	.	.	.	.	.	.	.	16ff\LL	.	.
.	.	.	.	.	.	.	16e/	.	.	.	.	.	.	.	.	16ee\	.	.
.	.	.	.	.	.	.	16g/	.	.	.	.	.	.	.	.	16gg\	.	.
!	!	!	!	!	!	!	!LO:SIC:v:t=custos cc	!	!	!	!	!	!	!	!	!	!	!
.	.	.	.	.	.	.	16f/JJ	.	.	.	.	.	.	.	.	16ff\JJ	.	.
!	!	!	!	!	!	!	!LO:LB:g=original	!	!	!	!	!	!	!	!	!	!	!
2r	.	.	2r	.	2r	.	16a/LL	.	.	.	.	.	.	.	.	16aa\LL	.	.
.	.	.	.	.	.	.	16g#X/	.	.	.	.	.	.	.	.	16gg#X\	.	.
.	.	.	.	.	.	.	16b/	.	.	.	.	.	.	.	.	16bb\	.	.
.	.	.	.	.	.	.	16a/JJ	.	.	.	.	.	.	.	.	16aa\JJ	.	.
.	.	.	.	.	.	.	16gn/LL	.	.	.	.	.	.	.	.	16ggn\LL	.	.
.	.	.	.	.	.	.	16f/	.	.	.	.	.	.	.	.	16ff\	.	.
.	.	.	.	.	.	.	16e/	.	.	.	.	.	.	.	.	16ee\	.	.
.	.	.	.	.	.	.	16d/JJ	.	.	.	.	.	.	.	.	16dd\JJ	.	.
=20	=20	=20	=20	=20	=20	=20	=20	=20	=20	=20	=20	=20	=20	=20	=20	=20	=20	=20
*2\right	*	*	*tremolo	*	*tremolo	*	*tremolo	*	*	*	*	*	*	*	*	*2\right	*	*
!	!	!	!	!LO:DY:rj:t=ff.	!	!LO:DY:rj	!	!LO:DY:rj	!	!	!	!	!	!	!	!	!	!
2G\	6 4	.	16cc/LL	ff	16cc 16e/LL	f	16ee 16g\LL	ff	2gg\	et	.	2G/	.	2g/	.	2gg\	2ggg\	.
.	.	.	16cc/	.	16cc 16e/	.	16ee 16g\	.	.	.	.	.	.	.	.	.	.	.
.	.	.	16cc/	.	16cc 16e/	.	16ee 16g\	.	.	.	.	.	.	.	.	.	.	.
.	.	.	16cc/	.	16cc 16e/	.	16ee 16g\	.	.	.	.	.	.	.	.	.	.	.
.	.	.	16cc/	.	16cc 16e/	.	16ee 16g\	.	.	.	.	.	.	.	.	.	.	.
.	.	.	16cc/	.	16cc 16e/	.	16ee 16g\	.	.	.	.	.	.	.	.	.	.	.
.	.	.	16cc/	.	16cc 16e/	.	16ee 16g\	.	.	.	.	.	.	.	.	.	.	.
.	.	.	16cc/JJ	.	16cc 16e/JJ	.	16ee 16g\JJ	.	.	.	.	.	.	.	.	.	.	.
2A\	5 3	.	16cc/LL	.	16cc 16e/LL	.	16ee 16a\LL	.	2ee\	in-	.	2e/	.	2e/	.	2ee\	2eee\	.
.	.	.	16cc/	.	16cc 16e/	.	16ee 16a\	.	.	.	.	.	.	.	.	.	.	.
.	.	.	16cc/	.	16cc 16e/	.	16ee 16a\	.	.	.	.	.	.	.	.	.	.	.
.	.	.	16cc/	.	16cc 16e/	.	16ee 16a\	.	.	.	.	.	.	.	.	.	.	.
.	.	.	16cc/	.	16cc 16e/	.	16ee 16a\	.	.	.	.	.	.	.	.	.	.	.
.	.	.	16cc/	.	16cc 16e/	.	16ee 16a\	.	.	.	.	.	.	.	.	.	.	.
.	.	.	16cc/	.	16cc 16e/	.	16ee 16a\	.	.	.	.	.	.	.	.	.	.	.
.	.	.	16cc/JJ	.	16cc 16e/JJ	.	16ee 16a\JJ	.	.	.	.	.	.	.	.	.	.	.
=21	=21	=21	=21	=21	=21	=21	=21	=21	=21	=21	=21	=21	=21	=21	=21	=21	=21	=21
2F\	6 5 -3	.	16dd/LL	.	16a-X/LL	.	16dd 16f/LL	.	4.dd\	-vi-	.	2c/	.	2c/	.	4.cc\	4.ddd\	.
.	.	.	16dd/	.	16a-/	.	16dd 16f/	.	.	.	.	.	.	.	.	.	.	.
.	.	.	16dd/	.	16a-/	.	16dd 16f/	.	.	.	.	.	.	.	.	.	.	.
.	.	.	16dd/	.	16a-/	.	16dd 16f/	.	.	.	.	.	.	.	.	.	.	.
.	.	.	16dd/	.	16a-/	.	16dd 16f/	.	.	.	.	.	.	.	.	.	.	.
.	.	.	16dd/	.	16a-/	.	16dd 16f/	.	.	.	.	.	.	.	.	.	.	.
.	.	.	16dd/	.	16a-/	.	16dd 16f/	.	8dd\	-si-	.	.	.	.	.	8cc\	8ddd\	.
.	.	.	16dd/JJ	.	16a-/JJ	.	16dd 16f/JJ	.	.	.	.	.	.	.	.	.	.	.
2G\	7	.	16gg 16b/LL	.	16dd 16f/LL	.	16gg 16b\LL	.	4.gg\	-bi-	.	2G/	.	2g/	.	4.b\	4.ggg\	.
.	.	.	16gg 16b/	.	16dd 16f/	.	16gg 16b\	.	.	.	.	.	.	.	.	.	.	.
.	.	.	16gg 16b/	.	16dd 16f/	.	16gg 16b\	.	.	.	.	.	.	.	.	.	.	.
.	.	.	16gg 16b/	.	16dd 16f/	.	16gg 16b\	.	.	.	.	.	.	.	.	.	.	.
.	.	.	16gg 16b/	.	16dd 16f/	.	16gg 16b\	.	.	.	.	.	.	.	.	.	.	.
.	.	.	16gg 16b/	.	16dd 16f/	.	16gg 16b\	.	.	.	.	.	.	.	.	.	.	.
.	.	.	16gg 16b/	.	16dd 16f/	.	16gg 16b\	.	8gg\	-li-	.	.	.	.	.	8b\	8ggg\	.
.	.	.	16gg 16b/JJ	.	16dd 16f/JJ	.	16gg 16b\JJ	.	.	.	.	.	.	.	.	.	.	.
*	*	*	*Xtremolo	*	*Xtremolo	*	*Xtremolo	*	*	*	*	*	*	*	*	*	*	*
=22	=22	=22	=22	=22	=22	=22	=22	=22	=22	=22	=22	=22	=22	=22	=22	=22	=22	=22
4C/	5 3	.	4cc/	.	4g/	.	4cc 4e/	.	4cc\	-um	.	4c/	.	4c/	.	4cc\	4ccc\	.
8r	.	.	8r	.	8r	.	8r	.	4r	.	.	4r	.	4r	.	4r	4r	.
!LO:TX:a:i:t=unisono	!	!	!	!	!	!	!LO:N:vis=4	!	!	!	!	!	!	!	!	!	!	!
8C/	.	.	8cc/	.	8c/	.	8c/	.	.	.	.	.	.	.	.	.	.	.
!	!	!	!	!	!	!	!	!	!	!	!	!LO:TX:t=P:problem=kreska taktowa podwójna	!	!LO:TX:t=P:problem=kreska taktowa podwójna	!	!LO:TX:t=P:problem=kreska taktowa podwójna	!LO:TX:t=P:problem=kreska taktowa podwójna	!
!	!	!	!	!	!	!	!	!	!	!	!	!LO:TX:a:i:t=Fine	!	!LO:TX:b:i:t=Fine	!	!LO:TX:b:i:t=Fine	!LO:TX:b:i:t=Fine	!
8BB/L	.	.	8b/L	.	8B/L	.	8B/L	.	2r	.	.	2r	.	2r	.	2r	2r	.
8C/	.	.	8cc/	.	8c/	.	8c/	.	.	.	.	.	.	.	.	.	.	.
8BB/	.	.	8b/	.	8B/	.	8B/	.	.	.	.	.	.	.	.	.	.	.
8C/J	.	.	8cc/J	.	8c/J	.	8c/J	.	.	.	.	.	.	.	.	.	.	.
=23	=23	=23	=23	=23	=23	=23	=23	=23	=23	=23	=23	=23	=23	=23	=23	=23	=23	=23
4C/	.	.	4cc/	.	4c/	.	4c/	.	4c/	et	.	4r	.	4r	.	4r	4r	.
4B-X\	6 4 2	.	4ee 4cc/	.	4g/	.	4ee 4cc\	.	4c/	in	.	4c/	.	4e/	.	4ee\	4ee\	.
4A-X\	6 3	.	4cc/	.	4f/	.	4cc\	.	4f/	Je-	.	4c/	.	4c/	.	4ff\	4ff\	.
4F\	5 -3	.	4cc/	.	4a-X/	.	4ff 4cc\	.	4a-X/	-sum	.	4c/	.	4c/	.	4aa-X\	4aa-X\	.
!	!	!	!	!	!LO:LB:g=original	!	!	!	!	!	!	!	!	!	!	!	!	!
=24	=24	=24	=24	=24	=24	=24	=24	=24	=24	=24	=24	=24	=24	=24	=24	=24	=24	=24
2C/	5 3	.	2cc/	.	2g/	.	2ee 2cc\	.	2cc\	Chri-	.	2c/	.	2e/	.	2ccc\	2ccc\	.
4C/	8	.	4cc/	.	4c/	.	4cc\	.	4cc\	-stum	.	4c/	.	4c/	.	4cc\	4cc\	.
4r	.	.	4r	.	4r	.	4r	.	4r	.	.	4r	.	4r	.	4r	4r	.
!	!	!	!LO:LB:g=original	!	!	!	!	!	!	!	!	!LO:LB:g=original	!	!	!	!	!LO:LB:g=original	!
=25	=25	=25	=25	=25	=25	=25	=25	=25	=25	=25	=25	=25	=25	=25	=25	=25	=25	=25
4C/	.	.	4cc/	.	4c/	.	4c/	.	[4c/	Fi-	.	4r	.	4r	.	4r	4r	.
4B-X\	4 2	.	4ee 4cc/	.	4g/	.	4ee 4cc\	.	8c/]	-li-	.	4c/	.	4e/	.	4ee\	4ee\	.
.	.	.	.	.	.	.	.	.	8c/	-um	.	.	.	.	.	.	.	.
4A-X\	6	.	4cc/	.	4f/	.	4cc\	.	4f/	De-	.	4c/	.	4c/	.	4ff\	4ff\	.
4F\	5 -3	.	4cc/	.	4a-X/	.	4ff 4cc\	.	4a-X/	-i	.	4c/	.	4c/	.	4aa-X\	4aa-X\	.
!	!	!	!	!	!	!	!	!	!LO:LB:g=original	!	!	!	!	!	!	!	!	!
=26	=26	=26	=26	=26	=26	=26	=26	=26	=26	=26	=26	=26	=26	=26	=26	=26	=26	=26
2C/	5 3	.	2cc/	.	2g/	.	2ee 2cc\	.	2cc\	pa-	.	2c/	.	2e/	.	2ccc\	2ccc\	.
4C/	8	.	4cc/	.	4c/	.	4cc\	.	4cc\	-tris	.	4c/	.	4c/	.	4cc\	4cc\	.
4r	.	.	4r	.	4r	.	4r	.	4r	.	.	4r	.	4r	.	4r	4r	.
=27||	=27||	=27||	=27||	=27||	=27||	=27||	=27||	=27||	=27||	=27||	=27||	=27||	=27||	=27||	=27||	=27||	=27||	=27||
!!!key: F
*k[b-]	*	*	*k[b-]	*	*k[b-]	*	*k[b-]	*	*k[b-]	*	*	*k[b-]	*	*k[b-]	*	*k[b-]	*k[b-]	*
*M3/4	*	*	*M3/4	*	*M3/4	*	*M3/4	*	*M3/4	*	*	*M3/4	*	*M3/4	*	*M3/4	*M3/4	*
!LO:TX:a:i:t=tasto Solo	!	!	!	!	!	!	!	!	!	!	!	!LO:TX:a:t=20	!	!LO:TX:a:t=20	!	!	!LO:TX:a:t=9	!
!LO:TX:a:Bi:t=Andte	!	!	!LO:TX:a:Bi:t=Andte	!	!LO:TX:a:Bi:t=Andante	!	!LO:TX:a:Bi:t=Andte	!	!LO:TX:a:Bi:t=Andte	!	!	!LO:TX:a:Bi:t=Andte	!	!LO:TX:a:Bi:t=Andte	!	!LO:TX:a:Bi:t=Andte	!LO:TX:a:Bi:t=Andte	!
4F\	.	.	4a/	.	4c/	.	4cc\	.	(4cc\	Et	.	2.r	.	2.r	.	4a/	0.r	.
4AA/	.	.	4cc/	.	4f/	.	4ff\	.	4ff\)	.	.	.	.	.	.	4cc/	.	.
8BB-/L	.	.	8cc/L	.	8e/L	.	8ee\L	.	8ee\	in-	.	.	.	.	.	8cc/L	.	.
8D/J	.	.	8b-/J	.	8d/J	.	8dd\J	.	8dd\	-car-	.	.	.	.	.	8b-/J	.	.
=28	=28	=28	=28	=28	=28	=28	=28	=28	=28	=28	=28	=28	=28	=28	=28	=28	=28	=28
4F\	.	.	8.b-/L	.	8.d/L	.	8.dd\L	.	8.dd\	-na-	.	2.r	.	2.r	.	8.b-/L	.	.
.	.	.	16b-/Jk	.	16d/Jk	.	16dd\Jk	.	16dd\	-tus	.	.	.	.	.	16b-/Jk	.	.
4F\	.	.	4a/	.	4c/	.	4cc\	.	4cc\	est	.	.	.	.	.	4a/	.	.
4r	.	.	4f/	.	4c/	.	4a/	.	4a\	de	.	.	.	.	.	4f/	.	.
!	!	!	!	!	!	!	!	!	!	!	!	!	!	!	!	!LO:LB:g=original	!	!
=29	=29	=29	=29	=29	=29	=29	=29	=29	=29	=29	=29	=29	=29	=29	=29	=29	=29	=29
!LO:TX:a:t=1	!	!	!	!	!	!	!	!	!	!	!	!	!	!	!	!	!	!
2.r	.	.	4f/	.	4c/	.	4a 4f/	.	4a\	spi-	.	2.r	.	2.r	.	4f/	.	.
.	.	.	4ee\	.	4c#X/	.	4a/	.	4a\	-ri-	.	.	.	.	.	4g/	.	.
.	.	.	4ee-X\	.	4cn/	.	4a 4f#X/	.	4a\	-tu	.	.	.	.	.	4f#X/	.	.
=30	=30	=30	=30	=30	=30	=30	=30	=30	=30	=30	=30	=30	=30	=30	=30	=30	=30	=30
4r	.	.	4.dd/	.	4.B-/	.	4.g/	.	(4.g\	san-	.	2.r	.	2.r	.	4g/	.	.
4r	.	.	.	.	.	.	.	.	.	.	.	.	.	.	.	4r	.	.
.	.	.	8f#X/L	.	8d/L	.	8a/L	.	8a\)	.	.	.	.	.	.	.	.	.
8r	.	.	8g/	.	(8d/	.	8b-/	.	8b-\	-cto	.	.	.	.	.	4r	.	.
8BB-/	.	.	8ddJ 8b-/	.	8g/J)	.	8ddJ 8d/	.	8dd\	de	.	.	.	.	.	.	.	.
=31	=31	=31	=31	=31	=31	=31	=31	=31	=31	=31	=31	=31	=31	=31	=31	=31	=31	=31
2C/	.	.	4b-/	.	4g/	.	4dd 4d/	.	4dd\	spi-	.	2.r	.	2.r	.	4e/	0.r	.
.	.	.	4a/	.	4f/	.	4cc/	.	4cc\	-ri-	.	.	.	.	.	4f/	.	.
4C/	.	.	4b-/	.	4e/	.	4b-/	.	4g\	-to	.	.	.	.	.	4g/	.	.
!LO:LB:g=original	!	!	!	!	!	!	!LO:LB:g=original	!	!	!	!	!	!	!	!	!	!	!
=32	=32	=32	=32	=32	=32	=32	=32	=32	=32	=32	=32	=32	=32	=32	=32	=32	=32	=32
4E\	.	.	4cc/	.	4g/	.	4b-/	.	4b-\	san-	.	2.r	.	2.r	.	4g/	.	.
4F\	.	.	4cc/	.	4f/	.	4a/	.	4a\	-cto	.	.	.	.	.	4f/	.	.
4r	.	.	4r	.	4r	.	4r	.	4r	.	.	.	.	.	.	4r	.	.
=33	=33	=33	=33	=33	=33	=33	=33	=33	=33	=33	=33	=33	=33	=33	=33	=33	=33	=33
*	*	*	*2\right	*	*	*	*	*	*	*	*	*	*	*	*	*	*	*
!	!	!	!	!	!	!	!	!	!	!	!	!	!	!	!	!LO:TX:a:t=3	!	!
2.C#X/	.	.	2.ee\	.	2g 2A/	.	4.a/	.	4.a\	ex	.	2.r	.	2.r	.	1.r	.	.
.	.	.	.	.	.	.	8a/L	.	8a\	Ma-	.	.	.	.	.	.	.	.
.	.	.	.	.	4r	.	8b-/	.	8b-\	-ri-	.	.	.	.	.	.	.	.
.	.	.	.	.	.	.	8a/J	.	8a\	-a	.	.	.	.	.	.	.	.
=34	=34	=34	=34	=34	=34	=34	=34	=34	=34	=34	=34	=34	=34	=34	=34	=34	=34	=34
2.D\	.	.	2dd/	.	2f 2A/	.	8a/L	.	8a\	Vir-	.	2.r	.	2.r	.	.	.	.
.	.	.	.	.	.	.	16bn/L	.	(16bn\LL	-gi-	.	.	.	.	.	.	.	.
.	.	.	.	.	.	.	16cc#X/JJ	.	16cc#X\JJ)	.	.	.	.	.	.	.	.	.
.	.	.	.	.	.	.	4dd\	.	4dd\	-ne	.	.	.	.	.	.	.	.
.	.	.	4r	.	4r	.	8.ff\L	.	(8ff\L	et	.	.	.	.	.	.	.	.
.	.	.	.	.	.	.	.	.	8dd\J)	.	.	.	.	.	.	.	.	.
.	.	.	.	.	.	.	16dd\Jk	.	.	.	.	.	.	.	.	.	.	.
!	!	!	!	!	!LO:LB:g=original	!	!	!	!LO:LB:g=original	!	!	!	!	!	!	!	!	!
=35	=35	=35	=35	=35	=35	=35	=35	=35	=35	=35	=35	=35	=35	=35	=35	=35	=35	=35
2G 2GG/	.	.	2cc/	.	2e 2A/	.	4.gg\	.	4.gg\	ho-	.	2.r	.	2.r	.	2.r	2.r	.
.	.	.	.	.	.	.	16ee\LL	.	(16ee\LL	-mo	.	.	.	.	.	.	.	.
.	.	.	.	.	.	.	16cc\JJ	.	16cc\JJ)	.	.	.	.	.	.	.	.	.
4G 4GG/	.	.	4dd 4bX/	.	4f 4G/	.	8g/L	.	8g\	fac-	.	.	.	.	.	.	.	.
.	.	.	.	.	.	.	16a/L	.	(16a\LL	-tus	.	.	.	.	.	.	.	.
.	.	.	.	.	.	.	16bn/JJ	.	16b-\JJ)	.	.	.	.	.	.	.	.	.
=36	=36	=36	=36	=36	=36	=36	=36	=36	=36	=36	=36	=36	=36	=36	=36	=36	=36	=36
4C/	.	.	(8cc/L	.	8eL 8G/	.	8cc\L	.	4cc\	est	.	2.r	.	2.r	.	2.b-^<\	8ccc\L	.
.	.	.	8cc#X/	.	8c#X/	.	8cc#X\	.	.	.	.	.	.	.	.	.	8ccc#X\	.
4r	.	.	8ee/	.	8e/	.	8ee\	.	4r	.	.	.	.	.	.	.	8eee\	.
.	.	.	8dd/	.	8d/	.	8dd\	.	.	.	.	.	.	.	.	.	8ddd\	.
4r	.	.	8cc/	.	8cn/	.	8ccn\	.	4r	.	.	.	.	.	.	.	8cccn\	.
.	.	.	8b-X/J)	.	8B-X/J	.	8b-X\J	.	.	.	.	.	.	.	.	.	8bb-\J	.
=37	=37	=37	=37	=37	=37	=37	=37	=37	=37	=37	=37	=37	=37	=37	=37	=37	=37	=37
4F\	.	.	4a/	.	4c/	.	4cc\	.	(4cc\	et	.	2.r	.	2.r	.	4a/	4ccc\	.
4AA/	.	.	4cc/	.	4f/	.	4ff\	.	4ff\)	.	.	.	.	.	.	4cc/	4fff\	.
8BB-/L	.	.	8cc/L	.	8e/L	.	8ee\L	.	8ee\	in-	.	.	.	.	.	8cc/L	8eee\L	.
8D/J	.	.	8b-/J	.	8d/J	.	8dd\J	.	8dd\	-car-	.	.	.	.	.	8b-/J	8ddd\J	.
=38	=38	=38	=38	=38	=38	=38	=38	=38	=38	=38	=38	=38	=38	=38	=38	=38	=38	=38
4F\	.	.	8.b-/L	.	8.d/L	.	8.dd\L	.	8.dd\	-na-	.	2.r	.	2.r	.	8.b-/L	8.ddd\L	.
.	.	.	16b-/Jk	.	16d/Jk	.	16dd\Jk	.	16dd\	-tus	.	.	.	.	.	16b-/Jk	16ddd\Jk	.
4F\	.	.	4a/	.	4c/	.	4cc\	.	4cc\	est	.	.	.	.	.	4a/	4ccc\	.
4r	.	.	4f/	.	4c/	.	4a/	.	4a\	de	.	.	.	.	.	4f/	4aa\	.
=39	=39	=39	=39	=39	=39	=39	=39	=39	=39	=39	=39	=39	=39	=39	=39	=39	=39	=39
!LO:TX:a:t=1	!	!	!	!	!	!	!	!	!	!	!	!	!	!	!	!	!	!
2.r	.	.	4f/	.	4c/	.	4a 4f/	.	4a\	spi-	.	2.r	.	2.r	.	4f/	4aa\	.
.	.	.	4ee\	.	4c#X/	.	4a/	.	4a\	-ri-	.	.	.	.	.	4g/	4aa\	.
.	.	.	4ee-X\	.	4cn/	.	4a 4f#X/	.	4a\	-to	.	.	.	.	.	4f#X/	4aa\	.
!	!	!	!LO:PB:g=original	!	!	!	!	!	!	!	!	!	!	!	!	!	!	!
=40	=40	=40	=40	=40	=40	=40	=40	=40	=40	=40	=40	=40	=40	=40	=40	=40	=40	=40
4r	.	.	4.dd/	.	4.B-/	.	4.g/	.	(4.g\	san-	.	2.r	.	2.r	.	4g/	4.gg\	.
4r	.	.	.	.	.	.	.	.	.	.	.	.	.	.	.	4r	.	.
.	.	.	8f#X/L	.	8d/L	.	8a/L	.	8a\)	.	.	.	.	.	.	.	8aa\	.
8r	.	.	8g/	.	(8d/	.	8b-/	.	8b-\	-cto	.	.	.	.	.	4r	8bb-\L	.
8BB-/	.	.	8ddJ 8b-/	.	8g/J)	.	8ddJ 8d/	.	8dd\	de	.	.	.	.	.	.	8ddd\J	.
=41	=41	=41	=41	=41	=41	=41	=41	=41	=41	=41	=41	=41	=41	=41	=41	=41	=41	=41
2C/	.	.	4b-/	.	4g/	.	4dd 4e/	.	4dd\	spi-	.	2.r	.	2.r	.	4e/	4ddd\	.
.	.	.	4a/	.	4f/	.	4cc/	.	4cc\	-ri-	.	.	.	.	.	4f/	4ccc\	.
4C/	.	.	4b-/	.	4e/	.	4g/	.	4g\	-to	.	.	.	.	.	4g/	4gg\	.
=42	=42	=42	=42	=42	=42	=42	=42	=42	=42	=42	=42	=42	=42	=42	=42	=42	=42	=42
4E\	.	.	4cc/	.	4g/	.	4b-/	.	4b-\	san-	.	2.r	.	2.r	.	4g/	4bb-\	.
4F\	.	.	4cc/	.	4f/	.	4a/	.	4a\	-cto	.	.	.	.	.	4f/	4aa\	.
4r	.	.	4r	.	4r	.	4r	.	4r	.	.	.	.	.	.	4r	4r	.
=43	=43	=43	=43	=43	=43	=43	=43	=43	=43	=43	=43	=43	=43	=43	=43	=43	=43	=43
2F\	.	.	4.a/	.	2c/	.	2a 2f/	.	4.a\	ex	.	2.r	.	2.r	.	2f/	4.aa\	.
.	.	.	8a/	.	.	.	.	.	8a\	Ma-	.	.	.	.	.	.	8aa\	.
4E-X\	.	.	8g/L	.	4c/	.	4a 4f/	.	8g\	-ri-	.	.	.	.	.	4e-X/	8gg\L	.
.	.	.	8a/J	.	.	.	.	.	8a\	-a	.	.	.	.	.	.	8aa\J	.
=44	=44	=44	=44	=44	=44	=44	=44	=44	=44	=44	=44	=44	=44	=44	=44	=44	=44	=44
2D\	.	.	8.b-/L	.	2f/	.	2b-/	.	8.b-\	Vir-	.	2.r	.	2.r	.	2d/	8.bb-\L	.
.	.	.	16b-/Jk	.	.	.	.	.	16b-\	-gi-	.	.	.	.	.	.	16bb-\Jk	.
.	.	.	4b-/	.	.	.	.	.	4b-\	-ne	.	.	.	.	.	.	4bb-\	.
4D-X\	.	.	4dd 4bX/	.	4f/	.	4a-X/	.	4bn\	et	.	.	.	.	.	4c#X/	4bbn\	.
!	!	!	!	!	!	!	!	!	!LO:LB:g=original	!	!	!	!	!	!	!	!	!
=45	=45	=45	=45	=45	=45	=45	=45	=45	=45	=45	=45	=45	=45	=45	=45	=45	=45	=45
!	!	!	!	!	!	!	!	!	!	!	!	!	!	!	!	!	!LO:N:vis=4.	!
2C/	.	.	2cc/	.	2a 2f/	.	4.cc\	.	4.cc\	ho-	.	2.r	.	2.r	.	4.aa\	4ccc\	.
.	.	.	.	.	.	.	.	.	.	.	.	.	.	.	.	.	4aa\	.
.	.	.	.	.	.	.	8aa\L	.	8a\	-mo	.	.	.	.	.	8ff\L	.	.
4C/	.	.	4ee\	.	4g 4B-X/	.	8gg\	.	8g\	fac-	.	.	.	.	.	8ee\	8gg\L	.
.	.	.	.	.	.	.	8ccc\J	.	8cc\	-tus	.	.	.	.	.	8ee\J	8ccc\J	.
!	!	!	!	!	!LO:LB:g=original	!	!	!	!	!	!	!	!	!	!	!	!LO:PB:g=original	!
=46	=46	=46	=46	=46	=46	=46	=46	=46	=46	=46	=46	=46	=46	=46	=46	=46	=46	=46
4F\	.	.	4cc/	.	4f 4A/	.	4ff 4a/	.	4f/	est	.	2.r	.	2.r	.	4ff\	4ff\	.
.	.	.	(8qe/	.	(8qe/	.	(8qe/	.	.	.	.	.	.	.	.	8qee/	8qee/	.
4F\	.	.	4f/)	.	4f/)	.	4f/)	.	4r	.	.	.	.	.	.	4ff\	4ff\	.
.	.	.	(8qe/	.	(8qe/	.	(8qe/	.	.	.	.	.	.	.	.	8qee/	8qee/	.
4F\	.	.	4f/)	.	4f/)	.	4f/)	.	4r	.	.	.	.	.	.	4ff\	4ff\	.
!	!	!	!	!	!	!	!	!	!	!	!	!	!	!LO:LB:g=original	!	!	!	!
=47	=47	=47	=47	=47	=47	=47	=47	=47	=47	=47	=47	=47	=47	=47	=47	=47	=47	=47
!	!	!	!LO:N:vis=2	!	!LO:TX:b:i:t=Tempo 1._Verte	!	!	!	!	!	!	!LO:TX:b:i:t=Da C al Fine	!	!LO:TX:b:i:t=Da Capo al Fine	!	!	!	!
2.G;<\	.	.	2.dd 2.bX;/	.	2.f 2.G;/	.	8ff\L	.	2.r;	.	.	2.r;	.	2.r;	.	8ff\L	8ff\L	.
.	.	.	.	.	.	.	8aa\	.	.	.	.	.	.	.	.	8ff\	8aa\	.
.	.	.	.	.	.	.	8gg\	.	.	.	.	.	.	.	.	8ee\	8gg\	.
.	.	.	.	.	.	.	8ff\	.	.	.	.	.	.	.	.	8dd\	8ff\	.
.	.	.	.	.	.	.	8ee\	.	.	.	.	.	.	.	.	8cc\	8ee\	.
!	!	!	!	!	!	!	!	!	!	!	!	!	!	!	!	!	!LO:TX:b:i:t=D&colon;C. al	!
!	!	!	!	!	!	!	!	!	!	!	!	!	!	!	!	!	!LO:TX:a:i:t=Fine	!
.	.	.	.	.	.	.	8dd;\J	.	.	.	.	.	.	.	.	8bn;\J	8dd;\J	.
!	!	!	!	!	!	!	!LO:PB:g=original	!	!	!	!	!	!	!LO:LB:g=original	!	!LO:LB:g=original	!LO:LB:g=original	!
=48||	=48||	=48||	=48||	=48||	=48||	=48||	=48||	=48||	=48||	=48||	=48||	=48||	=48||	=48||	=48||	=48||	=48||	=48||
!!!key: C
*k[]	*	*	*k[]	*	*k[]	*	*k[]	*	*k[]	*	*	*k[]	*	*k[]	*	*k[]	*k[]	*
*M4/4	*	*	*M4/4	*	*M4/4	*	*M4/4	*	*M4/4	*	*	*M4/4	*	*M4/4	*	*M4/4	*M4/4	*
*met(c)	*	*	*met(c)	*	*met(c)	*	*met(c)	*	*met(c)	*	*	*met(c)	*	*met(c)	*	*met(c)	*met(c)	*
*tremolo	*	*	*tremolo	*	*tremolo	*	*	*	*	*	*	*	*	*	*	*	*	*
!LO:TX:a:Bi:t=Tempo I	!	!	!LO:TX:a:Bi:t=Tempo I°	!	!LO:TX:a:Bi:t=Tempo I	!LO:DY:rj	!	!	!LO:TX:a:Bi:t=Tempo I	!	!	!LO:TX:a:Bi:t=Allegretto	!LO:DY:rj	!LO:TX:a:Bi:t=Allegretto	!LO:DY:rj	!LO:TX:a:Bi:t=Allegretto	!LO:TX:a:Bi:t=Allegretto	!LO:DY:rj
8C/L	5_ 3_	.	16cc/LL	f	16e 16G/LL	f	8ee 8g\	.	1r	.	.	2.c/yy	fy	2.e/yy	fy	8cc\yy	8eee\yy	fy
.	.	.	16cc/	.	16e 16G/	.	.	.	.	.	.	.	.	.	.	.	.	.
8GG/	.	.	16cc/	.	16e 16G/	.	4ee 4g\	.	.	.	.	.	.	.	.	4cc\yy	4eee\yy	.
.	.	.	16cc/	.	16e 16G/	.	.	.	.	.	.	.	.	.	.	.	.	.
8C/	.	.	16cc/	.	16e 16G/	.	.	.	.	.	.	.	.	.	.	.	.	.
.	.	.	16cc/	.	16e 16G/	.	.	.	.	.	.	.	.	.	.	.	.	.
8GG/J	.	.	16cc/	.	16e 16G/	.	8ee 8g\	.	.	.	.	.	.	.	.	8cc\yy	8eee\yy	.
.	.	.	16cc/JJ	.	16e 16G/JJ	.	.	.	.	.	.	.	.	.	.	.	.	.
8C/L	.	.	16cc/LL	.	16e 16G/LL	.	8eeL 8g\	.	.	.	.	.	.	.	.	8cc/Lyy	8eee\Lyy	.
.	.	.	16cc/	.	16e 16G/	.	.	.	.	.	.	.	.	.	.	.	.	.
8GG/	.	.	16cc/	.	16e 16G/	.	(16ff#X\L	.	.	.	.	.	.	.	.	16f#X/Lyy	(y16ff#X\Lyy	.
.	.	.	16cc/	.	16e 16G/	.	16gg\JJ	.	.	.	.	.	.	.	.	16g/JJyy	16gg\JJyy	.
8C/	.	.	16cc/	.	16e 16G/	.	16aa\LL	.	.	.	.	4ryy	.	4ryy	.	16a/LLyy	16aa\LLyy	.
.	.	.	16cc/	.	16e 16G/	.	16gg\	.	.	.	.	.	.	.	.	16g/yy	16gg\yy	.
8GG/J	.	.	16cc/	.	16e 16G/	.	16ff#\	.	.	.	.	.	.	.	.	16f#/yy	16ff#\yy	.
.	.	.	16cc/JJ	.	16e 16G/JJ	.	16gg\JJ)	.	.	.	.	.	.	.	.	16g/JJyy	16gg\JJ)yy	.
=49	=49	=49	=49	=49	=49	=49	=49	=49	=49	=49	=49	=49	=49	=49	=49	=49	=49	=49
*rep	*	*	*rep	*	*rep	*	*rep	*	*	*	*	*	*	*	*	*rep	*	*
8C/L	.	.	16cc/LL	.	16e 16G/LL	.	8ee 8g\	.	(4.ee\	Cre-	.	4.e/yy	.	4.ee\yy	.	8cc\yy	4.eee\yy	.
.	.	.	16cc/	.	16e 16G/	.	.	.	.	.	.	.	.	.	.	.	.	.
8GG/	.	.	16cc/	.	16e 16G/	.	4ee 4g\	.	.	.	.	.	.	.	.	4cc\yy	.	.
.	.	.	16cc/	.	16e 16G/	.	.	.	.	.	.	.	.	.	.	.	.	.
8C/	.	.	16cc/	.	16e 16G/	.	.	.	.	.	.	.	.	.	.	.	.	.
.	.	.	16cc/	.	16e 16G/	.	.	.	.	.	.	.	.	.	.	.	.	.
8GG/J	.	.	16cc/	.	16e 16G/	.	8ee 8g\	.	8cc\)	.	.	8c/yy	.	8cc\yy	.	8cc\yy	8ccc\yy	.
.	.	.	16cc/JJ	.	16e 16G/JJ	.	.	.	.	.	.	.	.	.	.	.	.	.
8C/L	.	.	16cc/LL	.	16e 16G/LL	.	8eeL 8g\	.	4g\	-do	.	4G/yy	.	4g\yy	.	8cc/Lyy	8gg\Lyy	.
.	.	.	16cc/	.	16e 16G/	.	.	.	.	.	.	.	.	.	.	.	.	.
!	!	!	!	!	!	!	!	!	!	!	!	!	!	!	!	!	!LO:TX:a:t=P:problem=brak początku łuku	!
8GG/	.	.	16cc/	.	16e 16G/	.	(16ff#X\L	.	.	.	.	.	.	.	.	16f#X/Lyy	(y16ff#X\Lyy	.
.	.	.	16cc/	.	16e 16G/	.	16gg\JJ	.	.	.	.	.	.	.	.	16g/JJyy	16gg\JJyy	.
!	!	!	!	!	!	!	!	!	!	!	!	!	!	!	!	!	!LO:LB:g=original	!
8C/	.	.	16cc/	.	16e 16G/	.	16aa\LL	.	4r	.	.	4ryy	.	4ryy	.	16a/LLyy	16aa\LLyy	.
.	.	.	16cc/	.	16e 16G/	.	16gg\	.	.	.	.	.	.	.	.	16g/yy	16gg\yy	.
8GG/J	.	.	16cc/	.	16e 16G/	.	16ff#\	.	.	.	.	.	.	.	.	16f#/yy	16ff#\yy	.
.	.	.	16cc/JJ	.	16e 16G/JJ	.	16gg\JJ)	.	.	.	.	.	.	.	.	16g/JJyy	16gg\JJ)yy	.
*Xrep	*	*	*Xrep	*	*Xrep	*	*Xrep	*	*	*	*	*	*	*	*	*Xrep	*	*
!LO:PB:g=original	!	!	!	!	!	!	!	!	!	!	!	!	!	!	!	!	!	!
=50	=50	=50	=50	=50	=50	=50	=50	=50	=50	=50	=50	=50	=50	=50	=50	=50	=50	=50
!	!	!	!	!	!	!	!	!	!LO:TX:a:t=1	!	!	!	!	!	!	!	!	!
8BB/L	6_ 5_	.	16dd/LL	.	16f 16G/LL	.	8ff 8dd\	.	1r	.	.	2.G/yy	.	2.g/yy	.	8g/yy	8fff\yy	.
.	.	.	16dd/	.	16f 16G/	.	.	.	.	.	.	.	.	.	.	.	.	.
8GG/	.	.	16dd/	.	16f 16G/	.	4ff 4dd\	.	.	.	.	.	.	.	.	4g/yy	4fff\yy	.
.	.	.	16dd/	.	16f 16G/	.	.	.	.	.	.	.	.	.	.	.	.	.
8BB/	.	.	16dd/	.	16f 16G/	.	.	.	.	.	.	.	.	.	.	.	.	.
.	.	.	16dd/	.	16f 16G/	.	.	.	.	.	.	.	.	.	.	.	.	.
8GG/J	.	.	16dd/	.	16f 16G/	.	8ff 8dd\	.	.	.	.	.	.	.	.	8g/yy	8fff\yy	.
.	.	.	16dd/JJ	.	16f 16G/JJ	.	.	.	.	.	.	.	.	.	.	.	.	.
8BB/L	.	.	16dd/LL	.	16f 16G/LL	.	8ffL 8dd\	.	.	.	.	.	.	.	.	8g/Lyy	8fff\Lyy	.
.	.	.	16dd/	.	16f 16G/	.	.	.	.	.	.	.	.	.	.	.	.	.
8GG/	.	.	16dd/	.	16f 16G/	.	(16ff#X\L	.	.	.	.	.	.	.	.	16f#X/Lyy	(y16ff#X\Lyy	.
.	.	.	16dd/	.	16f 16G/	.	16gg\JJ	.	.	.	.	.	.	.	.	16g/JJyy	16gg\JJyy	.
8BB/	.	.	16dd/	.	16f 16G/	.	16aa\LL	.	.	.	.	4ryy	.	4ryy	.	16a/LLyy	16aa\LLyy	.
.	.	.	16dd/	.	16f 16G/	.	16gg\	.	.	.	.	.	.	.	.	16g/yy	16gg\yy	.
8GG/J	.	.	16dd/	.	16f 16G/	.	16ff#\	.	.	.	.	.	.	.	.	16f#/yy	16ff#\yy	.
.	.	.	16dd/JJ	.	16f 16G/JJ	.	16gg\JJ)	.	.	.	.	.	.	.	.	16g/JJyy	16gg\JJ)yy	.
=51	=51	=51	=51	=51	=51	=51	=51	=51	=51	=51	=51	=51	=51	=51	=51	=51	=51	=51
*rep	*	*	*rep	*	*rep	*	*rep	*	*	*	*	*	*	*	*	*	*	*
!	!	!	!	!	!	!	!	!	!	!	!	!LO:TX:a:t=1	!	!LO:TX:a:t=1	!	!	!	!
8BB/L	.	.	16dd/LL	.	16f 16G/LL	.	8ff 8dd\	.	(4.ff\	Cre-	.	1ryy	.	1ryy	.	4.fn/yy	4.fff\yy	.
.	.	.	16dd/	.	16f 16G/	.	.	.	.	.	.	.	.	.	.	.	.	.
8GG/	.	.	16dd/	.	16f 16G/	.	4ff 4dd\	.	.	.	.	.	.	.	.	.	.	.
.	.	.	16dd/	.	16f 16G/	.	.	.	.	.	.	.	.	.	.	.	.	.
8BB/	.	.	16dd/	.	16f 16G/	.	.	.	.	.	.	.	.	.	.	.	.	.
.	.	.	16dd/	.	16f 16G/	.	.	.	.	.	.	.	.	.	.	.	.	.
8GG/J	.	.	16dd/	.	16f 16G/	.	8ff 8dd\	.	8dd\)	.	.	.	.	.	.	8d/yy	8ddd\yy	.
.	.	.	16dd/JJ	.	16f 16G/JJ	.	.	.	.	.	.	.	.	.	.	.	.	.
8BB/L	.	.	16dd/LL	.	16f 16G/LL	.	8ffL 8dd\	.	4b\	-do	.	.	.	.	.	8B/Lyy	8bb\Lyy	.
.	.	.	16dd/	.	16f 16G/	.	.	.	.	.	.	.	.	.	.	.	.	.
8GG/	.	.	16dd/	.	16f 16G/	.	(16ff#X\L	.	.	.	.	.	.	.	.	16f#X/Lyy	(y16ff#X\Lyy	.
.	.	.	16dd/	.	16f 16G/	.	16gg\JJ	.	.	.	.	.	.	.	.	16g/JJyy	16gg\JJyy	.
8BB/	.	.	16dd/	.	16f 16G/	.	16aa\LL	.	4r	.	.	.	.	.	.	16a/LLyy	16aa\LLyy	.
.	.	.	16dd/	.	16f 16G/	.	16gg\	.	.	.	.	.	.	.	.	16g/yy	16gg\yy	.
8GG/J	.	.	16dd/	.	16f 16G/	.	16ff#\	.	.	.	.	.	.	.	.	16f#/yy	16ff#\yy	.
.	.	.	16dd/JJ	.	16f 16G/JJ	.	16gg\JJ)	.	.	.	.	.	.	.	.	16g/JJyy	16gg\JJ)yy	.
*Xrep	*	*	*Xrep	*	*Xrep	*	*Xrep	*	*	*	*	*	*	*	*	*	*	*
*Xtremolo	*	*	*Xtremolo	*	*Xtremolo	*	*	*	*	*	*	*	*	*	*	*	*	*
!	!	!	!	!	!	!	!	!	!	!	!	!	!	!LO:LB:g=original	!	!	!	!
=52	=52	=52	=52	=52	=52	=52	=52	=52	=52	=52	=52	=52	=52	=52	=52	=52	=52	=52
*	*	*	*	*	*	*	*tremolo	*	*	*	*	*	*	*	*	*	*	*
4.C/	5 3	.	4.ee 4.g/	.	4.g 4.c/	.	16eee\LL	.	4ee\	Cre-	.	4.c/yy	.	4.c/yy	.	4.cc/yy	4.eee\yy	.
.	.	.	.	.	.	.	16eee\	.	.	.	.	.	.	.	.	.	.	.
.	.	.	.	.	.	.	16eee\	.	.	.	.	.	.	.	.	.	.	.
.	.	.	.	.	.	.	16eee\JJ	.	.	.	.	.	.	.	.	.	.	.
.	.	.	.	.	.	.	16eee\LL	.	8ee\	-do	.	.	.	.	.	.	.	.
.	.	.	.	.	.	.	16eee\	.	.	.	.	.	.	.	.	.	.	.
8G\	5 3	.	8dd 8b/	.	8g 8G/	.	16ddd\	.	8ee\	in	.	8G/yy	.	8g/yy	.	8g/yy	8ddd\yy	.
.	.	.	.	.	.	.	16ddd\JJ	.	.	.	.	.	.	.	.	.	.	.
4.A\	5 3	.	4.cc/	.	4.a 4.e/	.	16ccc\LL	.	4cc\	spi-	.	4.c/yy	.	4.e/yy	.	4.a/yy	4.ccc\yy	.
.	.	.	.	.	.	.	16ccc\	.	.	.	.	.	.	.	.	.	.	.
.	.	.	.	.	.	.	16ccc\	.	.	.	.	.	.	.	.	.	.	.
.	.	.	.	.	.	.	16ccc\JJ	.	.	.	.	.	.	.	.	.	.	.
.	.	.	.	.	.	.	16ccc\LL	.	8cc\	-ri-	.	.	.	.	.	.	.	.
.	.	.	.	.	.	.	16ccc\	.	.	.	.	.	.	.	.	.	.	.
8E\	7 #3	.	8dd 8cc/	.	8g#X 8B/	.	16bb\	.	8b\	-to	.	8e/yy	.	8e/yy	.	8g#X/yy	8bb\yy	.
.	.	.	.	.	.	.	16bb\JJ	.	.	.	.	.	.	.	.	.	.	.
=53	=53	=53	=53	=53	=53	=53	=53	=53	=53	=53	=53	=53	=53	=53	=53	=53	=53	=53
!	!	!	!	!	!	!	!LO:TX:a:t=''''	!	!	!	!	!LO:TX:a:t=2	!	!LO:TX:a:t=2	!	!	!	!
4.F\	5 3	.	4.cc/	.	4.a 4.f/	.	16aa|\LL	.	(4.a/	san-	.	0ryy	.	0ryy	.	4.a/yy	4.aa\yy	.
.	.	.	.	.	.	.	16aa|\	.	.	.	.	.	.	.	.	.	.	.
.	.	.	.	.	.	.	16aa|\	.	.	.	.	.	.	.	.	.	.	.
.	.	.	.	.	.	.	16aa|\JJ	.	.	.	.	.	.	.	.	.	.	.
.	.	.	.	.	.	.	16aa\LL	.	.	.	.	.	.	.	.	.	.	.
.	.	.	.	.	.	.	16aa\	.	.	.	.	.	.	.	.	.	.	.
8C#X\	6_ 5_	.	8gg 8b-/	.	8e/	.	16gg\	.	8g/)	.	.	.	.	.	.	8c#X/yy	8gg\yy	.
.	.	.	.	.	.	.	16gg\JJ	.	.	.	.	.	.	.	.	.	.	.
4C#\	.	.	4gg 4b-/	.	4e/	.	16gg\LL	.	(4g/	-cto	.	.	.	.	.	4c#/yy	4gg\yy	.
.	.	.	.	.	.	.	16gg\	.	.	.	.	.	.	.	.	.	.	.
.	.	.	.	.	.	.	16gg\	.	.	.	.	.	.	.	.	.	.	.
.	.	.	.	.	.	.	16gg\JJ	.	.	.	.	.	.	.	.	.	.	.
4D\	5 3	.	4ff 4a/	.	4d/	.	16ff\LL	.	4f/)	.	.	.	.	.	.	4d/yy	4ff\yy	.
.	.	.	.	.	.	.	16ff\	.	.	.	.	.	.	.	.	.	.	.
.	.	.	.	.	.	.	16ff\	.	.	.	.	.	.	.	.	.	.	.
.	.	.	.	.	.	.	16ff\JJ	.	.	.	.	.	.	.	.	.	.	.
!	!	!	!	!	!	!	!	!	!	!	!	!	!	!	!	!LO:LB:g=original	!	!
=54	=54	=54	=54	=54	=54	=54	=54	=54	=54	=54	=54	=54	=54	=54	=54	=54	=54	=54
4.D\	3	.	4.ff 4.a/	.	4.a 4.d/	.	16ff\LL	.	4ff\	et	.	.	.	.	.	4.a/yy	4.fff\yy	.
.	.	.	.	.	.	.	16ff\	.	.	.	.	.	.	.	.	.	.	.
.	.	.	.	.	.	.	16ff\	.	.	.	.	.	.	.	.	.	.	.
.	.	.	.	.	.	.	16ff\JJ	.	.	.	.	.	.	.	.	.	.	.
.	.	.	.	.	.	.	16ff\LL	.	(8ff\L	in	.	.	.	.	.	.	.	.
.	.	.	.	.	.	.	16ff\	.	.	.	.	.	.	.	.	.	.	.
8E\	#6 4 3	.	8cc#X/	.	8g 8A/	.	16ee\	.	8ee\J)	.	.	.	.	.	.	8cc#X\yy	8eee\yy	.
.	.	.	.	.	.	.	16ee\JJ	.	.	.	.	.	.	.	.	.	.	.
4F\	6 3	.	4.dd 4.a/	.	4.a/	.	16dd\LL	.	4dd\	u-	.	.	.	.	.	4.dd\yy	4ddd\yy	.
.	.	.	.	.	.	.	16dd\	.	.	.	.	.	.	.	.	.	.	.
.	.	.	.	.	.	.	16dd\	.	.	.	.	.	.	.	.	.	.	.
.	.	.	.	.	.	.	16dd\JJ	.	.	.	.	.	.	.	.	.	.	.
4F#X\	6 5	.	.	.	.	.	16dd\LL	.	(8dd\L	-num	.	.	.	.	.	.	4ccc\yy	.
.	.	.	.	.	.	.	16dd\	.	.	.	.	.	.	.	.	.	.	.
.	.	.	8cc/	.	8a 8d/	.	16cc\	.	8cc\J)	.	.	.	.	.	.	8a\yy	.	.
.	.	.	.	.	.	.	16cc\JJ	.	.	.	.	.	.	.	.	.	.	.
=55	=55	=55	=55	=55	=55	=55	=55	=55	=55	=55	=55	=55	=55	=55	=55	=55	=55	=55
4G\	5 3	.	4dd 4b/	.	4g 4G/	.	16b\LL	.	4b\	e-	.	4G/yy	.	4g/yy	.	8g/Lyy	4bb\yy	.
.	.	.	.	.	.	.	16b\	.	.	.	.	.	.	.	.	.	.	.
.	.	.	.	.	.	.	16b\	.	.	.	.	.	.	.	.	8f/yy	.	.
.	.	.	.	.	.	.	16b\JJ	.	.	.	.	.	.	.	.	.	.	.
4E\	6 3	.	4cc/	.	4g 4G/	.	16cc\LL	.	8.cc\	-cle-	.	4G/yy	.	4g/yy	.	8e/yy	8.ccc\Lyy	.
.	.	.	.	.	.	.	16cc\	.	.	.	.	.	.	.	.	.	.	.
.	.	.	.	.	.	.	16ee\	.	.	.	.	.	.	.	.	8c/Jyy	.	.
.	.	.	.	.	.	.	16ee\JJ	.	16ee\	-si-	.	.	.	.	.	.	16eee\Jkyy	.
4G 4GG/	6 4	.	4cc/	.	4e 4G/	.	16ee\LL	.	(4ee\	-am	.	4G/yy	.	4g/yy	.	4g/yy	4eee\yy	.
.	.	.	.	.	.	.	16ee\	.	.	.	.	.	.	.	.	.	.	.
.	.	.	.	.	.	.	16ee\	.	.	.	.	.	.	.	.	.	.	.
.	.	.	.	.	.	.	16ee\JJ	.	.	.	.	.	.	.	.	.	.	.
!	!	!	!	!	!	!	!LO:TX:a:t=''''	!	!	!	!	!	!	!	!	!	!	!
4G\	5 3	.	4dd 4b/	.	4g 4G/	.	16dd|\LL	.	4dd\)	.	.	4G/yy	.	4g/yy	.	4g/yy	4ddd\yy	.
.	.	.	.	.	.	.	16dd|\	.	.	.	.	.	.	.	.	.	.	.
.	.	.	.	.	.	.	16dd|\	.	.	.	.	.	.	.	.	.	.	.
.	.	.	.	.	.	.	16dd|\JJ	.	.	.	.	.	.	.	.	.	.	.
*	*	*	*	*	*	*	*Xtremolo	*	*	*	*	*	*	*	*	*	*	*
!	!	!	!LO:LB:g=original	!	!	!	!	!	!	!	!	!	!	!	!	!	!	!
=56	=56	=56	=56	=56	=56	=56	=56	=56	=56	=56	=56	=56	=56	=56	=56	=56	=56	=56
!LO:TX:a:i:t=tasto Solo	!	!	!	!	!	!	!LO:TX:a:i:t=Solo:rj	!	!LO:TX:a:t=1.	!	!	!LO:TX:a:t=11	!	!LO:TX:a:t=11	!	!LO:TX:a:t=1.	!	!
4C/	.	.	8r	p	8r	p	4.gg\	.	1r	.	.	00ryy	.	00ryy	.	1ryy	4.gg\yy	.
*	*	*	*tremolo	*	*tremolo	*	*	*	*	*	*	*	*	*	*	*	*	*
.	.	.	8cc/L	.	8e 8G/L	.	.	.	.	.	.	.	.	.	.	.	.	.
4r	.	.	8cc/	.	8e 8G/	.	.	.	.	.	.	.	.	.	.	.	.	.
.	.	.	8cc/J	.	8e 8G/J	.	16aa\LL	.	.	.	.	.	.	.	.	.	16aa\LLyy	.
.	.	.	.	.	.	.	16gg\JJ	.	.	.	.	.	.	.	.	.	16gg\JJyy	.
4C/	.	.	8r	.	8r	.	8ff\L	.	.	.	.	.	.	.	.	.	8ff\Lyy	.
.	.	.	8cc/L	.	8e 8G/L	.	8ee\	.	.	.	.	.	.	.	.	.	8ee\yy	.
4r	.	.	8cc/	.	8e 8G/	.	8dd\	.	.	.	.	.	.	.	.	.	8dd\yy	.
.	.	.	8cc/J	.	8e 8G/J	.	8cc\J	.	.	.	.	.	.	.	.	.	8cc\Jyy	.
!	!	!	!	!	!	!	!	!	!LO:PB:g=original	!	!	!	!	!	!	!	!LO:LB:g=original	!
=57	=57	=57	=57	=57	=57	=57	=57	=57	=57	=57	=57	=57	=57	=57	=57	=57	=57	=57
!	!	!	!	!	!	!	!LO:SIC:v:t=custos ff	!	!	!	!	!	!	!	!	!	!	!
4BB/	.	.	8r	.	8r	.	2ff\	.	(8dd\L	et	.	.	.	.	.	[y2f/yy	2ff\yy	.
.	.	.	8dd/L	.	8f 8G/L	.	.	.	8cc#X\J)	.	.	.	.	.	.	.	.	.
4r	.	.	8dd/	.	8f 8G/	.	.	.	(8dd\L	in	.	.	.	.	.	.	.	.
.	.	.	8dd/J	.	8f 8G/J	.	.	.	8ccn\J)	.	.	.	.	.	.	.	.	.
!	!	!	!	!	!	!	!LO:LB:g=original	!	!	!	!	!	!	!	!	!	!	!
4GG/	.	.	8r	.	8r	.	8ff\L	.	4b\	vi-	.	.	.	.	.	8f/L]yy	2ryy	.
.	.	.	8dd 8b/L	.	8f 8G/L	.	8ff#X\	.	.	.	.	.	.	.	.	8f#X/yy	.	.
4r	.	.	8dd 8b/	.	8f 8G/	.	8gg\	.	8b\	-tam	.	.	.	.	.	8g/yy	.	.
.	.	.	8dd 8b/J	.	8f 8G/J	.	8ffn\J	.	8b\	ven-	.	.	.	.	.	8fn/Jyy	.	.
=58	=58	=58	=58	=58	=58	=58	=58	=58	=58	=58	=58	=58	=58	=58	=58	=58	=58	=58
!LO:TX:t=P:problem=takty nr 58-59 zapisane repetycją	!	!	!	!	!	!	!	!	!	!	!	!	!	!	!	!	!LO:TX:a:t=2	!
4C/yy	.	.	8r	.	8r	.	4.ee\	.	4cc\	-tu-	.	.	.	.	.	8e/Lyy	0ryy	.
.	.	.	8cc/L	.	8e 8G/L	.	.	.	.	.	.	.	.	.	.	16a/Lyy	.	.
.	.	.	.	.	.	.	.	.	.	.	.	.	.	.	.	16g/JJyy	.	.
4ryy	.	.	8cc/	.	8e 8G/	.	.	.	4cc\	-ri	.	.	.	.	.	8f/Lyy	.	.
.	.	.	8cc/J	.	8e 8G/J	.	16aa\LL	.	.	.	.	.	.	.	.	8e/yy	.	.
.	.	.	.	.	.	.	16gg\JJ	.	.	.	.	.	.	.	.	.	.	.
4C/yy	.	.	8r	.	8r	.	8ff\L	.	2r	.	.	.	.	.	.	8d/yy	.	.
.	.	.	8cc/L	.	8e 8G/L	.	8ee\	.	.	.	.	.	.	.	.	8c/Jyy	.	.
4ryy	.	.	8cc/	.	8e 8G/	.	8dd\	.	.	.	.	.	.	.	.	4ryy	.	.
.	.	.	8cc/J	.	8e 8G/J	.	8cc\J	.	.	.	.	.	.	.	.	.	.	.
=59	=59	=59	=59	=59	=59	=59	=59	=59	=59	=59	=59	=59	=59	=59	=59	=59	=59	=59
4BB/yy	.	.	8r	.	8r	.	2ff\	.	(8dd\L	vi-	.	.	.	.	.	[y2f/yy	.	.
.	.	.	8dd/L	.	8f 8G/L	.	.	.	8cc#X\	.	.	.	.	.	.	.	.	.
4ryy	.	.	8dd/	.	8f 8G/	.	.	.	8dd\	.	.	.	.	.	.	.	.	.
.	.	.	8dd/J	.	8f 8G/J	.	.	.	8ccn\J)	.	.	.	.	.	.	.	.	.
4GG/yy	.	.	8r	.	8r	.	8ff\L	.	4b\	-tam	.	.	.	.	.	8f/L]yy	.	.
.	.	.	8dd 8b/L	.	8f 8G/L	.	8ff#X\	.	.	.	.	.	.	.	.	8f#X/yy	.	.
4ryy	.	.	8dd 8b/	.	8f 8G/	.	8gg\	.	4b\	ven-	.	.	.	.	.	8g/yy	.	.
.	.	.	8dd 8b/J	.	8f 8G/J	.	8ffn\J	.	.	.	.	.	.	.	.	8fn/Jyy	.	.
*	*	*	*Xtremolo	*	*Xtremolo	*	*	*	*	*	*	*	*	*	*	*	*	*
=60	=60	=60	=60	=60	=60	=60	=60	=60	=60	=60	=60	=60	=60	=60	=60	=60	=60	=60
!	!	!	!	!	!	!LO:DY:rj	!	!	!	!	!	!	!	!	!	!	!	!
4C/	.	.	4cc/	.	4e 4G/	f	4ee\	.	4cc\	-tu-	.	00ryy	.	00ryy	.	4e/yy	4ryy	.
4B-X\	4 2	.	4cc/	.	4e 4G/	.	4eet\	.	4cc\	-ri	.	.	.	.	.	4b-XT\yy	4eeet\yy	.
4A\	6	.	4ff 4cc/	.	4f/	.	4ff\	.	2r	.	.	.	.	.	.	4a/yy	4fff\yy	.
4E\	6	.	4cc/	.	4g 4G/	.	4gg\	.	.	.	.	.	.	.	.	4cc\yy	4gggT\yy	.
=61	=61	=61	=61	=61	=61	=61	=61	=61	=61	=61	=61	=61	=61	=61	=61	=61	=61	=61
!	!	!	!	!	!	!	!	!	!LO:TX:a:t=1	!	!	!	!	!	!	!	!	!
4F\	.	.	4gg 4a/	.	4a 4c/	.	4aa\	.	1r	.	.	.	.	.	.	4cc\yy	4aaa\yy	.
4G\	#4 2	.	4ee 4cc#X/	.	4g 4A/	.	4cc#Xt\	.	.	.	.	.	.	.	.	8a/Lyy	4ccc#Xt\yy	.
.	.	.	.	.	.	.	.	.	.	.	.	.	.	.	.	8g/Jyy	.	.
4F\	6 3	.	4a/	.	4a 4d/	.	4dd\	.	.	.	.	.	.	.	.	4f/yy	4ddd\yy	.
4C#X/	6 5	.	4ee\	.	4g 4A/	.	4eet\	.	.	.	.	.	.	.	.	4a/yy	4eee\yy	.
=62	=62	=62	=62	=62	=62	=62	=62	=62	=62	=62	=62	=62	=62	=62	=62	=62	=62	=62
2D/	.	.	8r	.	8r	.	2ff\	.	2ff\	vi-	.	.	.	.	.	2a/yy	2fff\yy	.
*	*	*	*tremolo	*	*tremolo	*	*	*	*	*	*	*	*	*	*	*	*	*
.	.	.	8dd/L	.	8f 8A/L	.	.	.	.	.	.	.	.	.	.	.	.	.
.	.	.	8dd/	.	8f 8A/	.	.	.	.	.	.	.	.	.	.	.	.	.
!	!	!	!	!	!LO:SIC:v:t=custos cc	!	!	!	!	!	!	!	!	!	!	!	!	!
.	.	.	8dd/J	.	8f 8A/J	.	.	.	.	.	.	.	.	.	.	.	.	.
!	!	!	!	!	!LO:LB:g=original	!	!	!	!	!	!	!	!	!	!	!	!	!
2C/	-6 4	.	8r	.	8r	.	2ff\	.	4ff\	-tam	.	.	.	.	.	2a-X/yy	2fff\yy	.
.	.	.	8dd/L	.	8f 8A-X/L	.	.	.	.	.	.	.	.	.	.	.	.	.
.	.	.	8dd/	.	8f 8A-/	.	.	.	4ff\	ven-	.	.	.	.	.	.	.	.
.	.	.	8dd/J	.	8f 8A-/J	.	.	.	.	.	.	.	.	.	.	.	.	.
=63	=63	=63	=63	=63	=63	=63	=63	=63	=63	=63	=63	=63	=63	=63	=63	=63	=63	=63
2BB/	6 5	.	8r	.	8r	.	4.ff\	.	2ff\	-tu-	.	.	.	.	.	4.g/yy	4.fff\yy	.
.	.	.	8dd/L	.	8f 8G/L	.	.	.	.	.	.	.	.	.	.	.	.	.
.	.	.	8dd/	.	8f 8G/	.	.	.	.	.	.	.	.	.	.	.	.	.
.	.	.	8dd/J	.	8f 8G/J	.	8ff\	.	.	.	.	.	.	.	.	8g/yy	8fff\yy	.
4C/	5 3	.	8r	.	8r	.	4ee\	.	4ee\	-ri	.	.	.	.	.	4g/yy	4eee\yy	.
.	.	.	8cc/L	.	8e 8G/L	.	.	.	.	.	.	.	.	.	.	.	.	.
4r	.	.	8cc/	.	8e 8G/	.	4r	.	4r	.	.	.	.	.	.	4ryy	4ryy	.
.	.	.	8cc/J	.	8e 8G/J	.	.	.	.	.	.	.	.	.	.	.	.	.
*	*	*	*Xtremolo	*	*Xtremolo	*	*	*	*	*	*	*	*	*	*	*	*	*
=64	=64	=64	=64	=64	=64	=64	=64	=64	=64	=64	=64	=64	=64	=64	=64	=64	=64	=64
!	!	!	!	!	!	!	!	!	!LO:TX:a:t=1	!	!	!	!	!	!	!LO:TX:a:i:t=Solo	!LO:TX:a:t=1	!
4F\	6	.	4f/	.	4d 4A/	.	16d/LL	.	1r	.	.	0ryy	.	0ryy	.	16dd\LLyy	1ryy	.
.	.	.	.	.	.	.	16c#X/	.	.	.	.	.	.	.	.	16cc#X\yy	.	.
.	.	.	.	.	.	.	16e/	.	.	.	.	.	.	.	.	16ee\yy	.	.
.	.	.	.	.	.	.	16d/JJ	.	.	.	.	.	.	.	.	16dd\JJyy	.	.
4r	.	.	4r	.	4r	.	16f/LL	.	.	.	.	.	.	.	.	16ff\LLyy	.	.
.	.	.	.	.	.	.	16e/	.	.	.	.	.	.	.	.	16ee\yy	.	.
.	.	.	.	.	.	.	16g/	.	.	.	.	.	.	.	.	16gg\yy	.	.
.	.	.	.	.	.	.	16f/JJ	.	.	.	.	.	.	.	.	16ff\JJyy	.	.
8r	.	.	8r	.	8r	.	4a/	.	.	.	.	.	.	.	.	4aa\yy	.	.
*	*	*	*tremolo	*	*tremolo	*	*	*	*	*	*	*	*	*	*	*	*	*
8F\L	6	.	8f/L	.	8d 8A/L	.	.	.	.	.	.	.	.	.	.	.	.	.
8F\	.	.	8f/	.	8d 8A/	.	4r	.	.	.	.	.	.	.	.	4ryy	.	.
8F\J	.	.	8f/J	.	8d 8A/J	.	.	.	.	.	.	.	.	.	.	.	.	.
*	*	*	*Xtremolo	*	*	*	*	*	*	*	*	*	*	*	*	*	*	*
!	!	!	!	!	!	!	!	!	!	!	!	!	!	!	!	!LO:LB:g=original	!	!
=65	=65	=65	=65	=65	=65	=65	=65	=65	=65	=65	=65	=65	=65	=65	=65	=65	=65	=65
*	*	*	*rep	*	*	*	*rep	*	*	*	*	*	*	*	*	*	*	*
!LO:TX:t=P:problem=takt nr 65 zapisany repetycją	!	!	!	!	!	!	!	!	!	!	!	!	!	!	!	!LO:TX:a:t=1.	!	!
4F\yy	.	.	4f/	.	8d 8A/L	.	16d/LL	.	(16dd\LL	sae-	.	.	.	.	.	1ryy	16ddd\LLyy	.
.	.	.	.	.	.	.	16c#X/	.	16cc#X\	.	.	.	.	.	.	.	16ccc#X\yy	.
.	.	.	.	.	8d 8A/J	.	16e/	.	16ee\	.	.	.	.	.	.	.	16eee\yy	.
.	.	.	.	.	.	.	16d/JJ	.	16dd\JJ)	.	.	.	.	.	.	.	16ddd\JJyy	.
4ryy	.	.	4r	.	4r	.	16f/LL	.	(16ff\LL	-cu-	.	.	.	.	.	.	16fff\LLyy	.
.	.	.	.	.	.	.	16e/	.	16ee\	.	.	.	.	.	.	.	16eee\yy	.
.	.	.	.	.	.	.	16g/	.	16gg\	.	.	.	.	.	.	.	16ggg\yy	.
.	.	.	.	.	.	.	16f/JJ	.	16ff\JJ)	.	.	.	.	.	.	.	16fff\JJyy	.
8ryy	.	.	8r	.	8r	.	4a/	.	4aa\	-li	.	.	.	.	.	.	4aaa\yy	.
*	*	*	*tremolo	*	*	*	*	*	*	*	*	*	*	*	*	*	*	*
8F\Lyy	.	.	8f/L	.	8d 8A/L	.	.	.	.	.	.	.	.	.	.	.	.	.
8F\yy	.	.	8f/	.	8d 8A/	.	4r	.	4r	.	.	.	.	.	.	.	4ryy	.
8F\Jyy	.	.	8f/J	.	8d 8A/J	.	.	.	.	.	.	.	.	.	.	.	.	.
*	*	*	*Xrep	*	*	*	*	*	*	*	*	*	*	*	*	*	*	*
*	*	*	*Xtremolo	*	*Xtremolo	*	*Xrep	*	*	*	*	*	*	*	*	*	*	*
=66	=66	=66	=66	=66	=66	=66	=66	=66	=66	=66	=66	=66	=66	=66	=66	=66	=66	=66
!	!	!	!	!	!	!	!	!	!LO:TX:a:t=1	!	!	!	!	!	!	!	!LO:TX:a:t=1	!
4F\	.	.	4f/	.	4d 4A/	.	16d/LL	.	1r	.	.	1ryy	.	1ryy	.	16dd\LLyy	1ryy	.
.	.	.	.	.	.	.	16c#X/	.	.	.	.	.	.	.	.	16cc#X\yy	.	.
.	.	.	.	.	.	.	16e/	.	.	.	.	.	.	.	.	16ee\yy	.	.
.	.	.	.	.	.	.	16d/JJ	.	.	.	.	.	.	.	.	16dd\JJyy	.	.
4r	.	.	4r	.	4r	.	16f/LL	.	.	.	.	.	.	.	.	16ff\LLyy	.	.
.	.	.	.	.	.	.	16e/	.	.	.	.	.	.	.	.	16ee\yy	.	.
.	.	.	.	.	.	.	16g/	.	.	.	.	.	.	.	.	16gg\yy	.	.
.	.	.	.	.	.	.	16f/JJ	.	.	.	.	.	.	.	.	16ff\JJyy	.	.
2r	.	.	2r	.	2r	.	16a/LL	.	.	.	.	.	.	.	.	16aa\LLyy	.	.
.	.	.	.	.	.	.	16g#X/	.	.	.	.	.	.	.	.	16gg#X\yy	.	.
.	.	.	.	.	.	.	16b/	.	.	.	.	.	.	.	.	16bb\yy	.	.
.	.	.	.	.	.	.	16a/JJ	.	.	.	.	.	.	.	.	16aa\JJyy	.	.
.	.	.	.	.	.	.	16gn/LL	.	.	.	.	.	.	.	.	16ggn\LLyy	.	.
.	.	.	.	.	.	.	16f/	.	.	.	.	.	.	.	.	16ff\yy	.	.
.	.	.	.	.	.	.	16e/	.	.	.	.	.	.	.	.	16ee\yy	.	.
.	.	.	.	.	.	.	16d/JJ	.	.	.	.	.	.	.	.	16dd\JJyy	.	.
!	!	!	!	!	!	!	!LO:LB:g=original	!	!	!	!	!	!	!	!	!	!	!
=67	=67	=67	=67	=67	=67	=67	=67	=67	=67	=67	=67	=67	=67	=67	=67	=67	=67	=67
*	*	*	*tremolo	*	*tremolo	*	*tremolo	*	*	*	*	*	*	*	*	*	*	*
!	!	!	!	!LO:DY:rj	!	!LO:DY:rj	!	!LO:DY:rj	!	!	!	!	!	!	!	!	!	!
2G\	6 4	.	16cc/LL	ff	16cc 16e/LL	ff	16ee 16g\LL	ff	(2gg\	a-	.	2G/yy	.	2g/yy	.	2gg\yy	2ggg\yy	.
.	.	.	16cc/	.	16cc 16e/	.	16ee 16g\	.	.	.	.	.	.	.	.	.	.	.
.	.	.	16cc/	.	16cc 16e/	.	16ee 16g\	.	.	.	.	.	.	.	.	.	.	.
.	.	.	16cc/	.	16cc 16e/	.	16ee 16g\	.	.	.	.	.	.	.	.	.	.	.
.	.	.	16cc/	.	16cc 16e/	.	16ee 16g\	.	.	.	.	.	.	.	.	.	.	.
.	.	.	16cc/	.	16cc 16e/	.	16ee 16g\	.	.	.	.	.	.	.	.	.	.	.
.	.	.	16cc/	.	16cc 16e/	.	16ee 16g\	.	.	.	.	.	.	.	.	.	.	.
.	.	.	16cc/JJ	.	16cc 16e/JJ	.	16ee 16g\JJ	.	.	.	.	.	.	.	.	.	.	.
2A\	5 3	.	16cc/LL	.	16cc 16e/LL	.	16ee 16a\LL	.	2ee\)	.	.	2e/yy	.	2e/yy	.	2ee\yy	2eee\yy	.
.	.	.	16cc/	.	16cc 16e/	.	16ee 16a\	.	.	.	.	.	.	.	.	.	.	.
.	.	.	16cc/	.	16cc 16e/	.	16ee 16a\	.	.	.	.	.	.	.	.	.	.	.
.	.	.	16cc/	.	16cc 16e/	.	16ee 16a\	.	.	.	.	.	.	.	.	.	.	.
.	.	.	16cc/	.	16cc 16e/	.	16ee 16a\	.	.	.	.	.	.	.	.	.	.	.
.	.	.	16cc/	.	16cc 16e/	.	16ee 16a\	.	.	.	.	.	.	.	.	.	.	.
.	.	.	16cc/	.	16cc 16e/	.	16ee 16a\	.	.	.	.	.	.	.	.	.	.	.
.	.	.	16cc/JJ	.	16cc 16e/JJ	.	16ee 16a\JJ	.	.	.	.	.	.	.	.	.	.	.
=68	=68	=68	=68	=68	=68	=68	=68	=68	=68	=68	=68	=68	=68	=68	=68	=68	=68	=68
2F\	6 5 -3	.	16dd/LL	.	16a-X/LL	.	16dd 16f/LL	.	(2dd\	.	.	2c/yy	.	2c/yy	.	4.cc\yy	4.ddd\yy	.
.	.	.	16dd/	.	16a-/	.	16dd 16f/	.	.	.	.	.	.	.	.	.	.	.
.	.	.	16dd/	.	16a-/	.	16dd 16f/	.	.	.	.	.	.	.	.	.	.	.
.	.	.	16dd/	.	16a-/	.	16dd 16f/	.	.	.	.	.	.	.	.	.	.	.
.	.	.	16dd/	.	16a-/	.	16dd 16f/	.	.	.	.	.	.	.	.	.	.	.
.	.	.	16dd/	.	16a-/	.	16dd 16f/	.	.	.	.	.	.	.	.	.	.	.
.	.	.	16dd/	.	16a-/	.	16dd 16f/	.	.	.	.	.	.	.	.	8cc\yy	8ddd\yy	.
.	.	.	16dd/JJ	.	16a-/JJ	.	16dd 16f/JJ	.	.	.	.	.	.	.	.	.	.	.
2G\	7	.	16gg 16b/LL	.	16dd 16f/LL	.	16gg 16b\LL	.	2gg\)	.	.	2G/yy	.	2g/yy	.	4.b\yy	4.ggg\yy	.
.	.	.	16gg 16b/	.	16dd 16f/	.	16gg 16b\	.	.	.	.	.	.	.	.	.	.	.
.	.	.	16gg 16b/	.	16dd 16f/	.	16gg 16b\	.	.	.	.	.	.	.	.	.	.	.
.	.	.	16gg 16b/	.	16dd 16f/	.	16gg 16b\	.	.	.	.	.	.	.	.	.	.	.
.	.	.	16gg 16b/	.	16dd 16f/	.	16gg 16b\	.	.	.	.	.	.	.	.	.	.	.
.	.	.	16gg 16b/	.	16dd 16f/	.	16gg 16b\	.	.	.	.	.	.	.	.	.	.	.
.	.	.	16gg 16b/	.	16dd 16f/	.	16gg 16b\	.	.	.	.	.	.	.	.	8b\yy	8ggg\yy	.
.	.	.	16gg 16b/JJ	.	16dd 16f/JJ	.	16gg 16b\JJ	.	.	.	.	.	.	.	.	.	.	.
*	*	*	*Xtremolo	*	*Xtremolo	*	*Xtremolo	*	*	*	*	*	*	*	*	*	*	*
!LO:LB:g=original	!	!	!	!	!	!	!	!	!	!	!	!	!	!	!	!	!	!
=69	=69	=69	=69	=69	=69	=69	=69	=69	=69	=69	=69	=69	=69	=69	=69	=69	=69	=69
4C/	5_ 3_	.	4cc/	.	4cc 4e/	.	4cc 4e/	.	4cc\	-men	.	4c/yy	.	4c/yy	.	4cc\yy	4ccc\yy	.
4r	.	.	4r	.	4r	.	4r	.	4r	.	.	4ryy	.	4ryy	.	4ryy	4ryy	.
!	!	!	!	!	!	!	!	!	!	!	!	!LO:TX:a:i:t=Fine	!	!LO:TX:b:i:t=Fine	!	!LO:TX:b:i:t=Fine	!LO:TX:b:i:t=Fine	!
4C/	.	.	4.g 4.c/	.	4c/	.	4e/	.	2r	.	.	2ryy	.	2ryy	.	2ryy	2ryy	.
4C/	.	.	.	.	4c/	.	4e/	.	.	.	.	.	.	.	.	.	.	.
.	.	.	8g 8c/	.	.	.	.	.	.	.	.	.	.	.	.	.	.	.
=70	=70	=70	=70	=70	=70	=70	=70	=70	=70	=70	=70	=70	=70	=70	=70	=70	=70	=70
!	!	!	!	!	!	!	!	!	!LO:TX:a:t=1.	!	!	!	!	!	!	!	!	!
2C/	.	.	2g 2c;/	.	2c;/	.	2e/	.	1r	.	.	1ryy	.	1ryy	.	1ryy	1ryy	.
2r	x	.	2r	.	2r	.	2r	.	.	.	.	.	.	.	.	.	.	.
==	==	==	==	==	==	==	==	==	==	==	==	==	==	==	==	==	==	==
*-	*-	*-	*-	*-	*-	*-	*-	*-	*-	*-	*-	*-	*-	*-	*-	*-	*-	*-
!!!system-decoration: [(g1)][(g2)]<s5>[(g3)]<s9>
!!!RDF**kern: < = below
!!!RDF**kern: | = vertical stroke
!!!ENC: Berenika Jozajtis
!!!END: 2020-10-17
!!!AIN: 1 clars 1 flt 1 organ 1 soprn 2 tromp 3 violn
!!!ENC: Andrzej Kubiczek
!!!END: 2022-02-05
